%
(MILL=FANUC)
(INIT=X0.Y0.Z50.)
(T=1 DIA=3. NAME=EMB)
O1000
N1
G17G90G00G80G40G49
N2
G91G28Z0
G90G00X0Y0
T1M06
S610M03
G43Z50.H1
M08
G00X1.Y50.99
G00Z3.
G01Z1.5F30
G01X2.F16
G02X1.Y49.99I-1.
G01X0
G01X-1.
G03X-49.99Y1.I1.J-49.99
G01Y-1.
G03X-1.Y-49.99I49.99J1.
G01X1.
G03X49.99Y-1.I-1.J49.99
G01Y1.
G03X1.Y49.99I-49.99J-1.
G01X0
G01X-1.
G02X-2.Y50.99J1.
G01X-1.
G01Y51.982
G01Z1.49F30
G01X-2.F16
G03X-1.Y50.982I1.
G01X0
G01X1.973
G02X50.982Y1.973I-1.J-50.01
G01Y0.028
G02X1.973Y-50.982I-50.01J-1.
G01X0.028
G02X-50.982Y-1.973I-1.J50.01
G01Y-0.028
G02X-1.973Y50.982I50.01J1.
G01X0
G01X1.
G03X2.Y51.982J1.
G01X1.
G01Y52.974
G01Z1.462F30
G01X2.F16
G02X1.Y51.974I-1.
G01X0
G01X-0.963
G03X-51.974Y0.963I-1.J-50.011
G01Y-0.963
G03X-0.963Y-51.974I50.011J-1.
G01X0.963
G03X51.974Y-0.963I1.J50.011
G01Y0.963
G03X0.963Y51.974I-50.011J1.
G01X0
G01X-1.
G02X-2.Y52.974J1.
G01X-1.
G01Y53.966
G01Z1.414F30
G01X-2.F16
G03X-1.Y52.966I1.
G01X0
G01X1.972
G02X52.966Y1.972I1.J-49.993
G01Y-1.972
G02X1.972Y-52.966I-49.993J-1.
G01X-1.972
G02X-52.966Y-1.972I-1.J49.993
G01Y1.972
G02X-1.972Y52.966I49.993J1.
G01X0
G01X1.
G03X2.Y53.966J1.
G01X1.
G01Y54.956
G01Z1.347F30
G01X2.F16
G02X1.Y53.956I-1.
G01X0
G01X-2.999
G03X-53.956Y2.999I-0.999J-49.957
G01Y-2.999
G03X-2.999Y-53.956I49.957J-0.999
G01X2.999
G03X53.956Y-2.999I0.999J49.957
G01Y2.999
G03X2.999Y53.956I-49.957J0.999
G01X0
G01X-1.
G02X-2.Y54.956J1.
G01X-1.
G01Y55.945
G01Z1.261F30
G01X-2.F16
G03X-1.Y54.945I1.
G01X0
G01X4.043
G02X54.945Y4.043I0.998J-49.903
G01Y-4.043
G02X4.043Y-54.945I-49.903J-0.998
G01X-4.043
G02X-54.945Y-4.043I-0.998J49.903
G01Y4.043
G02X-4.043Y54.945I49.903J0.998
G01X0
G01X1.
G03X2.Y55.945J1.
G01X1.
G01Y56.931
G01Z1.156F30
G01X2.F16
G02X1.Y55.931I-1.
G01X0
G01X-5.105
G03X-55.931Y5.105I-0.997J-49.83
G01Y-5.105
G03X-5.105Y-55.931I49.83J-0.997
G01X5.105
G03X55.931Y-5.105I0.997J49.83
G01Y5.105
G03X5.105Y55.931I-49.83J0.997
G01X0
G01X-1.
G02X-2.Y56.931J1.
G01X-1.
G01Y57.916
G01Z1.032F30
G01X-2.F16
G03X-1.Y56.916I1.
G01X0
G01X6.183
G02X56.916Y6.183I0.995J-49.738
G01Y-6.183
G02X6.183Y-56.916I-49.738J-0.995
G01X-6.183
G02X-56.916Y-6.183I-0.995J49.738
G01Y6.183
G02X-6.183Y56.916I49.738J0.995
G01X0
G01X1.
G03X2.Y57.916J1.
G01X1.
G01Y58.898
G01Z0.889F30
G01X2.F16
G02X1.Y57.898I-1.
G01X0
G01X-7.277
G03X-57.898Y7.277I-0.993J-49.629
G01Y-7.277
G03X-7.277Y-57.898I49.629J-0.993
G01X7.277
G03X57.898Y-7.277I0.993J49.629
G01Y7.277
G03X7.277Y57.898I-49.629J0.993
G01X0
G01X-1.
G02X-2.Y58.898J1.
G01X-1.
G01Y59.877
G01Z0.727F30
G01X-2.F16
G03X-1.Y58.877I1.
G01X0
G01X8.387
G02X58.877Y8.387I0.99J-49.5
G01Y-8.387
G02X8.387Y-58.877I-49.5J-0.99
G01X-8.387
G02X-58.877Y-8.387I-0.99J49.5
G01Y8.387
G02X-8.387Y58.877I49.5J0.99
G01X0
G01X1.
G03X2.Y59.877J1.
G01X1.
G01Y60.853
G01Z0.547F30
G01X2.F16
G02X1.Y59.853I-1.
G01X0
G01X-9.512
G03X-59.853Y9.512I-0.987J-49.354
G01Y-9.512
G03X-9.512Y-59.853I49.354J-0.987
G01X9.512
G03X59.853Y-9.512I0.987J49.354
G01Y9.512
G03X9.512Y59.853I-49.354J0.987
G01X0
G01X-1.
G02X-2.Y60.853J1.
G01X-1.
G01Y61.825
G01Z0.347F30
G01X-2.F16
G03X-1.Y60.825I1.
G01X0
G01X10.653
G02X60.825Y10.653I0.984J-49.189
G01Y-10.653
G02X10.653Y-60.825I-49.189J-0.984
G01X-10.653
G02X-60.825Y-10.653I-0.984J49.189
G01Y10.653
G02X-10.653Y60.825I49.189J0.984
G01X0
G01X1.
G03X2.Y61.825J1.
G01X1.
G01Y62.794
G01Z0.129F30
G01X2.F16
G02X1.Y61.794I-1.
G01X0
G01X-11.808
G03X-61.794Y11.808I-0.98J-49.006
G01Y-11.808
G03X-11.808Y-61.794I49.006J-0.98
G01X11.808
G03X61.794Y-11.808I0.98J49.006
G01Y11.808
G03X11.808Y61.794I-49.006J0.98
G01X0
G01X-1.
G02X-2.Y62.794J1.
G01X-1.
G01Y63.757
G01Z-0.108F30
G01X-2.F16
G03X-1.Y62.757I1.
G01X0
G01X12.977
G02X62.757Y12.977I0.976J-48.804
G01Y-12.977
G02X12.977Y-62.757I-48.804J-0.976
G01X-12.977
G02X-62.757Y-12.977I-0.976J48.804
G01Y12.977
G02X-12.977Y62.757I48.804J0.976
G01X0
G01X1.
G03X2.Y63.757J1.
G01X1.
G01Y64.716
G01Z-0.363F30
G01X2.F16
G02X1.Y63.716I-1.
G01X0
G01X-14.159
G03X-63.716Y14.159I-0.972J-48.585
G01Y-14.159
G03X-14.159Y-63.716I48.585J-0.972
G01X14.159
G03X63.716Y-14.159I0.972J48.585
G01Y14.159
G03X14.159Y63.716I-48.585J0.972
G01X0
G01X-1.
G02X-2.Y64.716J1.
G01X-1.
G01Y65.67
G01Z-0.637F30
G01X-2.F16
G03X-1.Y64.67I1.
G01X0
G01X15.356
G02X64.67Y15.356I0.967J-48.348
G01Y-15.356
G02X15.356Y-64.67I-48.348J-0.967
G01X-15.356
G02X-64.67Y-15.356I-0.967J48.348
G01Y15.356
G02X-15.356Y64.67I48.348J0.967
G01X0
G01X1.
G03X2.Y65.67J1.
G01X1.
G01Y66.619
G01Z-0.929F30
G01X2.F16
G02X1.Y65.619I-1.
G01X0
G01X-16.564
G03X-65.619Y16.564I-0.962J-48.092
G01Y-16.564
G03X-16.564Y-65.619I48.092J-0.962
G01X16.564
G03X65.619Y-16.564I0.962J48.092
G01Y16.564
G03X16.564Y65.619I-48.092J0.962
G01X0
G01X-1.
G02X-2.Y66.619J1.
G01X-1.
G01Y67.561
G01Z-1.239F30
G01X-2.F16
G03X-1.Y66.561I1.
G01X0
G01X17.786
G02X66.561Y17.786I0.957J-47.819
G01Y-17.786
G02X17.786Y-66.561I-47.819J-0.957
G01X-17.786
G02X-66.561Y-17.786I-0.957J47.819
G01Y17.786
G02X-17.786Y66.561I47.819J0.957
G01X0
G01X1.
G03X2.Y67.561J1.
G01X1.
G01Y68.498
G01Z-1.567F30
G01X2.F16
G02X1.Y67.498I-1.
G01X0
G01X-19.019
G03X-67.498Y19.019I-0.951J-47.528
G01Y-19.019
G03X-19.019Y-67.498I47.528J-0.951
G01X19.019
G03X67.498Y-19.019I0.951J47.528
G01Y19.019
G03X19.019Y67.498I-47.528J0.951
G01X0
G01X-1.
G02X-2.Y68.498J1.
G01X-1.
G01Y69.428
G01Z-1.914F30
G01X-2.F16
G03X-1.Y68.428I1.
G01X0
G01X20.264
G02X68.428Y20.264I0.945J-47.22
G01Y-20.264
G02X20.264Y-68.428I-47.22J-0.945
G01X-20.264
G02X-68.428Y-20.264I-0.945J47.22
G01Y20.264
G02X-20.264Y68.428I47.22J0.945
G01X0
G01X1.
G03X2.Y69.428J1.
G01X1.
G01Y70.351
G01Z-2.278F30
G01X2.F16
G02X1.Y69.351I-1.
G01X0
G01X-21.519
G03X-69.351Y21.519I-0.938J-46.894
G01Y-21.519
G03X-21.519Y-69.351I46.894J-0.938
G01X21.519
G03X69.351Y-21.519I0.938J46.894
G01Y21.519
G03X21.519Y69.351I-46.894J0.938
G01X0
G01X-1.
G02X-2.Y70.351J1.
G01X-1.
G01Y71.267
G01Z-2.66F30
G01X-2.F16
G03X-1.Y70.267I1.
G01X0
G01X22.785
G02X70.267Y22.785I0.931J-46.551
G01Y-22.785
G02X22.785Y-70.267I-46.551J-0.931
G01X-22.785
G02X-70.267Y-22.785I-0.931J46.551
G01Y22.785
G02X-22.785Y70.267I46.551J0.931
G01X0
G01X1.
G03X2.Y71.267J1.
G01X1.
G01Y72.176
G01Z-3.059F30
G01X2.F16
G02X1.Y71.176I-1.
G01X0
G01X-24.062
G03X-71.176Y24.062I-0.924J-46.19
G01Y-24.062
G03X-24.062Y-71.176I46.19J-0.924
G01X24.062
G03X71.176Y-24.062I0.924J46.19
G01Y24.062
G03X24.062Y71.176I-46.19J0.924
G01X0
G01X-1.
G02X-2.Y72.176J1.
G01X-1.
G01Y73.076
G01Z-3.476F30
G01X-2.F16
G03X-1.Y72.076I1.
G01X0
G01X25.347
G02X72.076Y25.347I0.916J-45.812
G01Y-25.347
G02X25.347Y-72.076I-45.812J-0.916
G01X-25.347
G02X-72.076Y-25.347I-0.916J45.812
G01Y25.347
G02X-25.347Y72.076I45.812J0.916
G01X0
G01X1.
G03X2.Y73.076J1.
G01X1.
G01Y73.969
G01Z-3.911F30
G01X2.F16
G02X1.Y72.969I-1.
G01X0
G01X-26.642
G03X-72.969Y26.642I-0.908J-45.418
G01Y-26.642
G03X-26.642Y-72.969I45.418J-0.908
G01X26.642
G03X72.969Y-26.642I0.908J45.418
G01Y26.642
G03X26.642Y72.969I-45.418J0.908
G01X0
G01X-1.
G02X-2.Y73.969J1.
G01X-1.
G01Y74.852
G01Z-4.362F30
G01X-2.F16
G03X-1.Y73.852I1.
G01X0
G01X27.946
G02X73.852Y27.946I0.9J-45.006
G01Y-27.946
G02X27.946Y-73.852I-45.006J-0.9
G01X-27.946
G02X-73.852Y-27.946I-0.9J45.006
G01Y27.946
G02X-27.946Y73.852I45.006J0.9
G01X0
G01X1.
G03X2.Y74.852J1.
G01X1.
G01Y75.727
G01Z-4.83F30
G01X2.F16
G02X1.Y74.727I-1.
G01X0
G01X-29.258
G03X-74.727Y29.258I-0.892J-44.578
G01Y-29.258
G03X-29.258Y-74.727I44.578J-0.892
G01X29.258
G03X74.727Y-29.258I0.892J44.578
G01Y29.258
G03X29.258Y74.727I-44.578J0.892
G01X0
G01X-1.
G02X-2.Y75.727J1.
G01X-1.
G01Y76.593
G01Z-5.315F30
G01X-2.F16
G03X-1.Y75.593I1.
G01X0
G01X30.577
G02X75.593Y30.577I0.883J-44.133
G01Y-30.577
G02X30.577Y-75.593I-44.133J-0.883
G01X-30.577
G02X-75.593Y-30.577I-0.883J44.133
G01Y30.577
G02X-30.577Y75.593I44.133J0.883
G01X0
G01X1.
G03X2.Y76.593J1.
G01X1.
G01Y77.45
G01Z-5.817F30
G01X2.F16
G02X1.Y76.45I-1.
G01X0
G01X-31.904
G03X-76.45Y31.904I-0.874J-43.672
G01Y-31.904
G03X-31.904Y-76.45I43.672J-0.874
G01X31.904
G03X76.45Y-31.904I0.874J43.672
G01Y31.904
G03X31.904Y76.45I-43.672J0.874
G01X0
G01X-1.
G02X-2.Y77.45J1.
G01X-1.
G01Y78.296
G01Z-6.335F30
G01X-2.F16
G03X-1.Y77.296I1.
G01X0
G01X33.237
G02X77.296Y33.237I0.864J-43.195
G01Y-33.237
G02X33.237Y-77.296I-43.195J-0.864
G01X-33.237
G02X-77.296Y-33.237I-0.864J43.195
G01Y33.237
G02X-33.237Y77.296I43.195J0.864
G01X0
G01X1.
G03X2.Y78.296J1.
G01X1.
G01Y79.132
G01Z-6.869F30
G01X2.F16
G02X1.Y78.132I-1.
G01X0
G01X-34.576
G03X-78.132Y34.576I-0.854J-42.702
G01Y-34.576
G03X-34.576Y-78.132I42.702J-0.854
G01X34.576
G03X78.132Y-34.576I0.854J42.702
G01Y34.576
G03X34.576Y78.132I-42.702J0.854
G01X0
G01X-1.
G02X-2.Y79.132J1.
G01X-1.
G01Y79.958
G01Z-7.42F30
G01X-2.F16
G03X-1.Y78.958I1.
G01X0
G01X35.922
G02X78.958Y35.922I0.844J-42.193
G01Y-35.922
G02X35.922Y-78.958I-42.193J-0.844
G01X-35.922
G02X-78.958Y-35.922I-0.844J42.193
G01Y35.922
G02X-35.922Y78.958I42.193J0.844
G01X0
G01X1.
G03X2.Y79.958J1.
G01X1.
G01Y80.773
G01Z-7.986F30
G01X2.F16
G02X1.Y79.773I-1.
G01X0
G01X-37.272
G03X-79.773Y37.272I-0.833J-41.668
G01Y-37.272
G03X-37.272Y-79.773I41.668J-0.833
G01X37.272
G03X79.773Y-37.272I0.833J41.668
G01Y37.272
G03X37.272Y79.773I-41.668J0.833
G01X0
G01X-1.
G02X-2.Y80.773J1.
G01X-1.
G01Y81.577
G01Z-8.567F30
G01X-2.F16
G03X-1.Y80.577I1.
G01X0
G01X38.627
G02X80.577Y38.627I0.823J-41.128
G01Y-38.627
G02X38.627Y-80.577I-41.128J-0.823
G01X-38.627
G02X-80.577Y-38.627I-0.823J41.128
G01Y38.627
G02X-38.627Y80.577I41.128J0.823
G01X0
G01X1.
G03X2.Y81.577J1.
G01X1.
G01Y82.37
G01Z-9.165F30
G01X2.F16
G02X1.Y81.37I-1.
G01X0
G01X-39.986
G03X-81.37Y39.986I-0.812J-40.573
G01Y-39.986
G03X-39.986Y-81.37I40.573J-0.812
G01X39.986
G03X81.37Y-39.986I0.812J40.573
G01Y39.986
G03X39.986Y81.37I-40.573J0.812
G01X0
G01X-1.
G02X-2.Y82.37J1.
G01X-1.
G01Y83.151
G01Z-9.777F30
G01X-2.F16
G03X-1.Y82.151I1.
G01X0
G01X41.349
G02X82.151Y41.349I0.8J-40.002
G01Y-41.349
G02X41.349Y-82.151I-40.002J-0.8
G01X-41.349
G02X-82.151Y-41.349I-0.8J40.002
G01Y41.349
G02X-41.349Y82.151I40.002J0.8
G01X0
G01X1.
G03X2.Y83.151J1.
G01X1.
G01Y83.92
G01Z-10.404F30
G01X2.F16
G02X1.Y82.92I-1.
G01X0
G01X-42.715
G03X-82.92Y42.715I-0.788J-39.417
G01Y-42.715
G03X-42.715Y-82.92I39.417J-0.788
G01X42.715
G03X82.92Y-42.715I0.788J39.417
G01Y42.715
G03X42.715Y82.92I-39.417J0.788
G01X0
G01X-1.
G02X-2.Y83.92J1.
G01X-1.
G01Y84.677
G01Z-11.046F30
G01X-2.F16
G03X-1.Y83.677I1.
G01X0
G01X44.084
G02X83.677Y44.084I0.776J-38.817
G01Y-44.084
G02X44.084Y-83.677I-38.817J-0.776
G01X-44.084
G02X-83.677Y-44.084I-0.776J38.817
G01Y44.084
G02X-44.084Y83.677I38.817J0.776
G01X0
G01X1.
G03X2.Y84.677J1.
G01X1.
G01Y85.422
G01Z-11.702F30
G01X2.F16
G02X1.Y84.422I-1.
G01X0
G01X-45.454
G03X-84.422Y45.454I-0.764J-38.203
G01Y-45.454
G03X-45.454Y-84.422I38.203J-0.764
G01X45.454
G03X84.422Y-45.454I0.764J38.203
G01Y45.454
G03X45.454Y84.422I-38.203J0.764
G01X0
G01X-1.
G02X-2.Y85.422J1.
G01X-1.
G01Y86.153
G01Z-12.373F30
G01X-2.F16
G03X-1.Y85.153I1.
G01X0
G01X46.827
G02X85.153Y46.827I0.752J-37.575
G01Y-46.827
G02X46.827Y-85.153I-37.575J-0.752
G01X-46.827
G02X-85.153Y-46.827I-0.752J37.575
G01Y46.827
G02X-46.827Y85.153I37.575J0.752
G01X0
G01X1.
G03X2.Y86.153J1.
G01X1.
G01Y86.872
G01Z-13.057F30
G01X2.F16
G02X1.Y85.872I-1.
G01X0
G01X-48.2
G03X-85.872Y48.2I-0.739J-36.933
G01Y-48.2
G03X-48.2Y-85.872I36.933J-0.739
G01X48.2
G03X85.872Y-48.2I0.739J36.933
G01Y48.2
G03X48.2Y85.872I-36.933J0.739
G01X0
G01X-1.
G02X-2.Y86.872J1.
G01X-1.
G01Y87.577
G01Z-13.756F30
G01X-2.F16
G03X-1.Y86.577I1.
G01X0
G01X49.575
G02X86.577Y49.575I0.726J-36.277
G01Y-49.575
G02X49.575Y-86.577I-36.277J-0.726
G01X-49.575
G02X-86.577Y-49.575I-0.726J36.277
G01Y49.575
G02X-49.575Y86.577I36.277J0.726
G01X0
G01X1.
G03X2.Y87.577J1.
G01X1.
G01Y88.269
G01Z-14.468F30
G01X2.F16
G02X1.Y87.269I-1.
G01X0
G01X-50.949
G03X-87.269Y50.949I-0.712J-35.607
G01Y-50.949
G03X-50.949Y-87.269I35.607J-0.712
G01X50.949
G03X87.269Y-50.949I0.712J35.607
G01Y50.949
G03X50.949Y87.269I-35.607J0.712
G01X0
G01X-1.
G02X-2.Y88.269J1.
G01X-1.
G01Y88.946
G01Z-15.192F30
G01X-2.F16
G03X-1.Y87.946I1.
G01X0
G01X52.323
G02X87.946Y52.323I0.699J-34.925
G01Y-52.323
G02X52.323Y-87.946I-34.925J-0.699
G01X-52.323
G02X-87.946Y-52.323I-0.699J34.925
G01Y52.323
G02X-52.323Y87.946I34.925J0.699
G01X0
G01X1.
G03X2.Y88.946J1.
G01X1.
G01Y89.61
G01Z-15.93F30
G01X2.F16
G02X1.Y88.61I-1.
G01X0
G01X-53.696
G03X-88.61Y53.696I-0.685J-34.229
G01Y-53.696
G03X-53.696Y-88.61I34.229J-0.685
G01X53.696
G03X88.61Y-53.696I0.685J34.229
G01Y53.696
G03X53.696Y88.61I-34.229J0.685
G01X0
G01X-1.
G02X-2.Y89.61J1.
G01X-1.
G01Y90.259
G01Z-16.681F30
G01X-2.F16
G03X-1.Y89.259I1.
G01X0
G01X55.068
G02X89.259Y55.068I0.671J-33.521
G01Y-55.068
G02X55.068Y-89.259I-33.521J-0.671
G01X-55.068
G02X-89.259Y-55.068I-0.671J33.521
G01Y55.068
G02X-55.068Y89.259I33.521J0.671
G01X0
G01X1.
G03X2.Y90.259J1.
G01X1.
G01Y90.894
G01Z-17.444F30
G01X2.F16
G02X1.Y89.894I-1.
G01X0
G01X-56.438
G03X-89.894Y56.438I-0.656J-32.801
G01Y-56.438
G03X-56.438Y-89.894I32.801J-0.656
G01X56.438
G03X89.894Y-56.438I0.656J32.801
G01Y56.438
G03X56.438Y89.894I-32.801J0.656
G01X0
G01X-1.
G02X-2.Y90.894J1.
G01X-1.
G01Y91.514
G01Z-18.219F30
G01X-2.F16
G03X-1.Y90.514I1.
G01X0
G01X57.805
G02X90.514Y57.805I0.641J-32.068
G01Y-57.805
G02X57.805Y-90.514I-32.068J-0.641
G01X-57.805
G02X-90.514Y-57.805I-0.641J32.068
G01Y57.805
G02X-57.805Y90.514I32.068J0.641
G01X0
G01X1.
G03X2.Y91.514J1.
G01X1.
G01Y92.119
G01Z-19.006F30
G01X2.F16
G02X1.Y91.119I-1.
G01X0
G01X-59.169
G03X-91.119Y59.169I-0.627J-31.323
G01Y-59.169
G03X-59.169Y-91.119I31.323J-0.627
G01X59.169
G03X91.119Y-59.169I0.627J31.323
G01Y59.169
G03X59.169Y91.119I-31.323J0.627
G01X0
G01X-1.
G02X-2.Y92.119J1.
G01X-1.
G01Y92.709
G01Z-19.804F30
G01X-2.F16
G03X-1.Y91.709I1.
G01X0
G01X60.53
G02X91.709Y60.53I0.611J-30.567
G01Y-60.53
G02X60.53Y-91.709I-30.567J-0.611
G01X-60.53
G02X-91.709Y-60.53I-0.611J30.567
G01Y60.53
G02X-60.53Y91.709I30.567J0.611
G01X0
G01X1.
G03X2.Y92.709J1.
G01X1.
G01Y93.283
G01Z-20.613F30
G01X2.F16
G02X1.Y92.283I-1.
G01X0
G01X-61.887
G03X-92.283Y61.887I-0.596J-29.8
G01Y-61.887
G03X-61.887Y-92.283I29.8J-0.596
G01X61.887
G03X92.283Y-61.887I0.596J29.8
G01Y61.887
G03X61.887Y92.283I-29.8J0.596
G01X0
G01X-1.
G02X-2.Y93.283J1.
G01X-1.
G01Y93.841
G01Z-21.434F30
G01X-2.F16
G03X-1.Y92.841I1.
G01X0
G01X63.24
G02X92.841Y63.24I0.581J-29.021
G01Y-63.24
G02X63.24Y-92.841I-29.021J-0.581
G01X-63.24
G02X-92.841Y-63.24I-0.581J29.021
G01Y63.24
G02X-63.24Y92.841I29.021J0.581
G01X0
G01X1.
G03X2.Y93.841J1.
G01X1.
G01Y94.384
G01Z-22.265F30
G01X2.F16
G02X1.Y93.384I-1.
G01X0
G01X-64.587
G03X-93.384Y64.587I-0.565J-28.232
G01Y-64.587
G03X-64.587Y-93.384I28.232J-0.565
G01X64.587
G03X93.384Y-64.587I0.565J28.232
G01Y64.587
G03X64.587Y93.384I-28.232J0.565
G01X0
G01X-1.
G02X-2.Y94.384J1.
G01X-1.
G01Y94.91
G01Z-23.106F30
G01X-2.F16
G03X-1.Y93.91I1.
G01X0
G01X65.929
G02X93.91Y65.929I0.549J-27.432
G01Y-65.929
G02X65.929Y-93.91I-27.432J-0.549
G01X-65.929
G02X-93.91Y-65.929I-0.549J27.432
G01Y65.929
G02X-65.929Y93.91I27.432J0.549
G01X0
G01X1.
G03X2.Y94.91J1.
G01X1.
G01Y95.42
G01Z-23.957F30
G01X2.F16
G02X1.Y94.42I-1.
G01X0
G01X-67.265
G03X-94.42Y67.265I-0.533J-26.622
G01Y-67.265
G03X-67.265Y-94.42I26.622J-0.533
G01X67.265
G03X94.42Y-67.265I0.533J26.622
G01Y67.265
G03X67.265Y94.42I-26.622J0.533
G01X0
G01X-1.
G02X-2.Y95.42J1.
G01X-1.
G01Y95.914
G01Z-24.818F30
G01X-2.F16
G03X-1.Y94.914I1.
G01X0
G01X68.595
G02X94.914Y68.595I0.516J-25.803
G01Y-68.595
G02X68.595Y-94.914I-25.803J-0.516
G01X-68.595
G02X-94.914Y-68.595I-0.516J25.803
G01Y68.595
G02X-68.595Y94.914I25.803J0.516
G01X0
G01X1.
G03X2.Y95.914J1.
G01X1.
G01Y96.391
G01Z-25.689F30
G01X2.F16
G02X1.Y95.391I-1.
G01X0
G01X-69.918
G03X-95.391Y69.918I-0.5J-24.973
G01Y-69.918
G03X-69.918Y-95.391I24.973J-0.5
G01X69.918
G03X95.391Y-69.918I0.5J24.973
G01Y69.918
G03X69.918Y95.391I-24.973J0.5
G01X0
G01X-1.
G02X-2.Y96.391J1.
G01X-1.
G01Y96.851
G01Z-26.568F30
G01X-2.F16
G03X-1.Y95.851I1.
G01X0
G01X71.233
G02X95.851Y71.233I0.483J-24.135
G01Y-71.233
G02X71.233Y-95.851I-24.135J-0.483
G01X-71.233
G02X-95.851Y-71.233I-0.483J24.135
G01Y71.233
G02X-71.233Y95.851I24.135J0.483
G01X0
G01X1.
G03X2.Y96.851J1.
G01X1.
G01Y97.294
G01Z-27.456F30
G01X2.F16
G02X1.Y96.294I-1.
G01X0
G01X-72.54
G03X-96.294Y72.54I-0.466J-23.287
G01Y-72.54
G03X-72.54Y-96.294I23.287J-0.466
G01X72.54
G03X96.294Y-72.54I0.466J23.287
G01Y72.54
G03X72.54Y96.294I-23.287J0.466
G01X0
G01X-1.
G02X-2.Y97.294J1.
G01X-1.
G01Y97.719
G01Z-28.353F30
G01X-2.F16
G03X-1.Y96.719I1.
G01X0
G01X73.839
G02X96.719Y73.839I0.449J-22.431
G01Y-73.839
G02X73.839Y-96.719I-22.431J-0.449
G01X-73.839
G02X-96.719Y-73.839I-0.449J22.431
G01Y73.839
G02X-73.839Y96.719I22.431J0.449
G01X0
G01X1.
G03X2.Y97.719J1.
G01X1.
G01Y98.128
G01Z-29.257F30
G01X2.F16
G02X1.Y97.128I-1.
G01X0
G01X-75.129
G03X-97.128Y75.129I-0.431J-21.567
G01Y-75.129
G03X-75.129Y-97.128I21.567J-0.431
G01X75.129
G03X97.128Y-75.129I0.431J21.567
G01Y75.129
G03X75.129Y97.128I-21.567J0.431
G01X0
G01X-1.
G02X-2.Y98.128J1.
G01X-1.
G01Y98.519
G01Z-30.169F30
G01X-2.F16
G03X-1.Y97.519I1.
G01X0
G01X76.41
G02X97.519Y76.41I0.414J-20.695
G01Y-76.41
G02X76.41Y-97.519I-20.695J-0.414
G01X-76.41
G02X-97.519Y-76.41I-0.414J20.695
G01Y76.41
G02X-76.41Y97.519I20.695J0.414
G01X0
G01X1.
G03X2.Y98.519J1.
G01X1.
G01Y98.892
G01Z-31.089F30
G01X2.F16
G02X1.Y97.892I-1.
G01X0
G01X-77.681
G03X-97.892Y77.681I-0.396J-19.815
G01Y-77.681
G03X-77.681Y-97.892I19.815J-0.396
G01X77.681
G03X97.892Y-77.681I0.396J19.815
G01Y77.681
G03X77.681Y97.892I-19.815J0.396
G01X0
G01X-1.
G02X-2.Y98.892J1.
G01X-1.
G01Y99.248
G01Z-32.015F30
G01X-2.F16
G03X-1.Y98.248I1.
G01X0
G01X78.941
G02X98.248Y78.941I0.379J-18.928
G01Y-78.941
G02X78.941Y-98.248I-18.928J-0.379
G01X-78.941
G02X-98.248Y-78.941I-0.379J18.928
G01Y78.941
G02X-78.941Y98.248I18.928J0.379
G01X0
G01X1.
G03X2.Y99.248J1.
G01X1.
G01Y99.585
G01Z-32.949F30
G01X2.F16
G02X1.Y98.585I-1.
G01X0
G01X-80.191
G03X-98.585Y80.191I-0.361J-18.033
G01Y-80.191
G03X-80.191Y-98.585I18.033J-0.361
G01X80.191
G03X98.585Y-80.191I0.361J18.033
G01Y80.191
G03X80.191Y98.585I-18.033J0.361
G01X0
G01X-1.
G02X-2.Y99.585J1.
G01X-1.
G01Y99.905
G01Z-33.888F30
G01X-2.F16
G03X-1.Y98.905I1.
G01X0
G01X81.43
G02X98.905Y81.43I0.343J-17.133
G01Y-81.43
G02X81.43Y-98.905I-17.133J-0.343
G01X-81.43
G02X-98.905Y-81.43I-0.343J17.133
G01Y81.43
G02X-81.43Y98.905I17.133J0.343
G01X0
G01X1.
G03X2.Y99.905J1.
G01X1.
G01Y100.206
G01Z-34.834F30
G01X2.F16
G02X1.Y99.206I-1.
G01X0
G01X-82.656
G03X-99.206Y82.656I-0.325J-16.225
G01Y-82.656
G03X-82.656Y-99.206I16.225J-0.325
G01X82.656
G03X99.206Y-82.656I0.325J16.225
G01Y82.656
G03X82.656Y99.206I-16.225J0.325
G01X0
G01X-1.
G02X-2.Y100.206J1.
G01X-1.
G01Y100.489
G01Z-35.785F30
G01X-2.F16
G03X-1.Y99.489I1.
G01X0
G01X83.871
G02X99.489Y83.871I0.306J-15.312
G01Y-83.871
G02X83.871Y-99.489I-15.312J-0.306
G01X-83.871
G02X-99.489Y-83.871I-0.306J15.312
G01Y83.871
G02X-83.871Y99.489I15.312J0.306
G01X0
G01X1.
G03X2.Y100.489J1.
G01X1.
G01Y100.754
G01Z-36.741F30
G01X2.F16
G02X1.Y99.754I-1.
G01X0
G01X-85.073
G03X-99.754Y85.073I-0.288J-14.393
G01Y-85.073
G03X-85.073Y-99.754I14.393J-0.288
G01X85.073
G03X99.754Y-85.073I0.288J14.393
G01Y85.073
G03X85.073Y99.754I-14.393J0.288
G01X0
G01X-1.
G02X-2.Y100.754J1.
G01X-1.
G01Y101.
G01Z-37.703F30
G01X-2.F16
G03X-1.Y100.I1.
G01X0
G01X86.262
G02X100.Y86.262I0.269J-13.469
G01Y-86.262
G02X86.262Y-100.I-13.469J-0.269
G01X-86.262
G02X-100.Y-86.262I-0.269J13.469
G01Y86.262
G02X-86.262Y100.I13.469J0.269
G01X0
G01X1.
G03X2.Y101.J1.
G01X1.
G01Y101.228
G01Z-38.669F30
G01X2.F16
G02X1.Y100.228I-1.
G01X0
G01X-87.437
G03X-100.228Y87.437I-0.251J-12.54
G01Y-87.437
G03X-87.437Y-100.228I12.54J-0.251
G01X87.437
G03X100.228Y-87.437I0.251J12.54
G01Y87.437
G03X87.437Y100.228I-12.54J0.251
G01X0
G01X-1.
G02X-2.Y101.228J1.
G01X-1.
G01Y101.437
G01Z-39.639F30
G01X-2.F16
G03X-1.Y100.437I1.
G01X0
G01X88.599
G02X100.437Y88.599I0.232J-11.606
G01Y-88.599
G02X88.599Y-100.437I-11.606J-0.232
G01X-88.599
G02X-100.437Y-88.599I-0.232J11.606
G01Y88.599
G02X-88.599Y100.437I11.606J0.232
G01X0
G01X1.
G03X2.Y101.437J1.
G01X1.
G01Y101.627
G01Z-40.613F30
G01X2.F16
G02X1.Y100.627I-1.
G01X0
G01X-89.746
G03X-100.627Y89.746I-0.213J-10.668
G01Y-89.746
G03X-89.746Y-100.627I10.668J-0.213
G01X89.746
G03X100.627Y-89.746I0.213J10.668
G01Y89.746
G03X89.746Y100.627I-10.668J0.213
G01X0
G01X-1.
G02X-2.Y101.627J1.
G01X-1.
G01Y101.799
G01Z-41.59F30
G01X-2.F16
G03X-1.Y100.799I1.
G01X0
G01X90.878
G02X100.799Y90.878I0.195J-9.726
G01Y-90.878
G02X90.878Y-100.799I-9.726J-0.195
G01X-90.878
G02X-100.799Y-90.878I-0.195J9.726
G01Y90.878
G02X-90.878Y100.799I9.726J0.195
G01X0
G01X1.
G03X2.Y101.799J1.
G01X1.
G01Y101.951
G01Z-42.571F30
G01X2.F16
G02X1.Y100.951I-1.
G01X0
G01X-91.995
G03X-100.951Y91.995I-0.176J-8.781
G01Y-91.995
G03X-91.995Y-100.951I8.781J-0.176
G01X91.995
G03X100.951Y-91.995I0.176J8.781
G01Y91.995
G03X91.995Y100.951I-8.781J0.176
G01X0
G01X-1.
G02X-2.Y101.951J1.
G01X-1.
G01Y102.085
G01Z-43.554F30
G01X-2.F16
G03X-1.Y101.085I1.
G01X0
G01X93.097
G02X101.085Y93.097I0.157J-7.832
G01Y-93.097
G02X93.097Y-101.085I-7.832J-0.157
G01X-93.097
G02X-101.085Y-93.097I-0.157J7.832
G01Y93.097
G02X-93.097Y101.085I7.832J0.157
G01X0
G01X1.
G03X2.Y102.085J1.
G01X1.
G01Y102.2
G01Z-44.54F30
G01X2.F16
G02X1.Y101.2I-1.
G01X0
G01X-94.182
G03X-101.2Y94.182I-0.138J-6.88
G01Y-94.182
G03X-94.182Y-101.2I6.88J-0.138
G01X94.182
G03X101.2Y-94.182I0.138J6.88
G01Y94.182
G03X94.182Y101.2I-6.88J0.138
G01X0
G01X-1.
G02X-2.Y102.2J1.
G01X-1.
G01Y102.295
G01Z-45.528F30
G01X-2.F16
G03X-1.Y101.295I1.
G01X0
G01X95.251
G02X101.295Y95.251I0.119J-5.926
G01Y-95.251
G02X95.251Y-101.295I-5.926J-0.119
G01X-95.251
G02X-101.295Y-95.251I-0.119J5.926
G01Y95.251
G02X-95.251Y101.295I5.926J0.119
G01X0
G01X1.
G03X2.Y102.295J1.
G01X1.
G01Y102.372
G01Z-46.518F30
G01X2.F16
G02X1.Y101.372I-1.
G01X0
G01X-96.303
G03X-101.372Y96.303I-0.099J-4.97
G01Y-96.303
G03X-96.303Y-101.372I4.97J-0.099
G01X96.303
G03X101.372Y-96.303I0.099J4.97
G01Y96.303
G03X96.303Y101.372I-4.97J0.099
G01X0
G01X-1.
G02X-2.Y102.372J1.
G01X-1.
G01Y102.43
G01Z-47.508F30
G01X-2.F16
G03X-1.Y101.43I1.
G01X0
G01X97.338
G02X101.43Y97.338I0.08J-4.012
G01Y-97.338
G02X97.338Y-101.43I-4.012J-0.08
G01X-97.338
G02X-101.43Y-97.338I-0.08J4.012
G01Y97.338
G02X-97.338Y101.43I4.012J0.08
G01X0
G01X1.
G03X2.Y102.43J1.
G01X1.
G01Y102.468
G01Z-48.5F30
G01X2.F16
G02X1.Y101.468I-1.
G01X0
G01X-98.355
G03X-101.468Y98.355I-0.061J-3.052
G01Y-98.355
G03X-98.355Y-101.468I3.052J-0.061
G01X98.355
G03X101.468Y-98.355I0.061J3.052
G01Y98.355
G03X98.355Y101.468I-3.052J0.061
G01X0
G01X-1.
G02X-2.Y102.468J1.
G01X-1.
G00Z50.
G49G91G28Z0M09
M05
M30
%
