%
(WIRE=FANUC)
(INIT=X0.Y0.)
O1000
G90G40
G90G00G54X0.Y0.
G90
(MAT:SKD-11 HEIGHT:50.)
(PG=50. UV=0. W-TOP=50. W-BOTTOM=0.)
G90G00X0.Y10.
M60
M83
M80
S924
G01Y13.F0.9
S1071
G42D140Y25.V-5.F2.
X5.U5.V-5.
Y43.433U5.V-13.433
G02X5.838Y44.42I1.U14.162V-4.42K14.L-13.433
G01X6.657Y44.564U14.084V-4.564
X7.473Y44.727U14.008V-4.727
X8.284Y44.909U13.938V-4.909
X9.091Y45.109U13.872V-5.109
X9.893Y45.328U13.811V-5.328
X10.691Y45.566U13.753V-5.566
X11.482Y45.822U13.703V-5.822
X12.267Y46.095U13.659V-6.095
X13.046Y46.387U13.621V-6.387
X13.817Y46.697U13.59V-6.697
X14.582Y47.025U13.566V-7.025
X15.339Y47.37U13.55V-7.37
X16.087Y47.732U13.543V-7.732
X16.827Y48.112U13.543V-8.112
X17.558Y48.508U13.553V-8.508
X18.279Y48.922U13.573V-8.922
X18.991Y49.352U13.602V-9.352
X19.693Y49.798U13.64V-9.798
X20.385Y50.26U13.689V-10.26
X21.065Y50.738U13.75V-10.738
X21.734Y51.232U13.822V-11.232
X22.392Y51.741U13.904V-11.741
X23.038Y52.264U13.999V-12.264
X23.671Y52.803U14.107V-12.803
X24.292Y53.356U14.227V-13.356
X24.9Y53.924U14.359V-13.924
X25.495Y54.505U14.505V-14.505
X26.076Y55.1U13.924V-14.359
X26.644Y55.708U13.356V-14.227
X27.197Y56.329U12.803V-14.107
X27.736Y56.962U12.264V-13.999
X28.259Y57.608U11.741V-13.904
X28.768Y58.266U11.232V-13.822
X29.262Y58.935U10.738V-13.75
X29.74Y59.615U10.26V-13.689
X30.202Y60.307U9.798V-13.64
X30.648Y61.009U9.352V-13.602
X31.078Y61.721U8.922V-13.573
X31.492Y62.442U8.508V-13.553
X31.888Y63.173U8.112V-13.543
X32.268Y63.913U7.732V-13.543
X32.63Y64.661U7.37V-13.55
X32.975Y65.418U7.025V-13.566
X33.303Y66.183U6.697V-13.59
X33.613Y66.954U6.387V-13.621
X33.905Y67.733U6.095V-13.659
X34.178Y68.518U5.822V-13.703
X34.434Y69.309U5.566V-13.753
X34.672Y70.107U5.328V-13.811
X34.891Y70.909U5.109V-13.872
X35.091Y71.716U4.909V-13.938
X35.273Y72.527U4.727V-14.008
X35.436Y73.343U4.564V-14.084
X35.58Y74.162U4.42V-14.162
G02X36.567Y75.I0.987J-0.162U13.433V-5.K13.433L-14.
G01X55.U5.V-5.
Y85.U5.V5.
X36.567U13.433V5.
G02X35.58Y85.838J1.U4.42V14.162K13.433L14.
G01X35.436Y86.657U4.564V14.084
X35.273Y87.473U4.727V14.008
X35.091Y88.284U4.909V13.938
X34.891Y89.091U5.109V13.872
X34.672Y89.893U5.328V13.811
X34.434Y90.691U5.566V13.753
X34.178Y91.482U5.822V13.703
X33.905Y92.267U6.095V13.659
X33.613Y93.046U6.387V13.621
X33.303Y93.817U6.697V13.59
X32.975Y94.582U7.025V13.566
X32.63Y95.339U7.37V13.55
X32.268Y96.087U7.732V13.543
X31.888Y96.827U8.112V13.543
X31.492Y97.558U8.508V13.553
X31.078Y98.279U8.922V13.573
X30.648Y98.991U9.352V13.602
X30.202Y99.693U9.798V13.64
X29.74Y100.385U10.26V13.689
X29.262Y101.065U10.738V13.75
X28.768Y101.734U11.232V13.822
X28.259Y102.392U11.741V13.904
X27.736Y103.038U12.264V13.999
X27.197Y103.671U12.803V14.107
X26.644Y104.292U13.356V14.227
X26.076Y104.9U13.924V14.359
X25.495Y105.495U14.505V14.505
X24.9Y106.076U14.359V13.924
X24.292Y106.644U14.227V13.356
X23.671Y107.197U14.107V12.803
X23.038Y107.736U13.999V12.264
X22.392Y108.259U13.904V11.741
X21.734Y108.768U13.822V11.232
X21.065Y109.262U13.75V10.738
X20.385Y109.74U13.689V10.26
X19.693Y110.202U13.64V9.798
X18.991Y110.648U13.602V9.352
X18.279Y111.078U13.573V8.922
X17.558Y111.492U13.553V8.508
X16.827Y111.888U13.543V8.112
X16.087Y112.268U13.543V7.732
X15.339Y112.63U13.55V7.37
X14.582Y112.975U13.566V7.025
X13.817Y113.303U13.59V6.697
X13.046Y113.613U13.621V6.387
X12.267Y113.905U13.659V6.095
X11.482Y114.178U13.703V5.822
X10.691Y114.434U13.753V5.566
X9.893Y114.672U13.811V5.328
X9.091Y114.891U13.872V5.109
X8.284Y115.091U13.938V4.909
X7.473Y115.273U14.008V4.727
X6.657Y115.436U14.084V4.564
X5.838Y115.58U14.162V4.42
G02X5.Y116.567I0.162J0.987U5.V13.433K14.L13.433
G01Y135.U5.V5.
X-5.U-5.V5.
Y116.567U-5.V13.433
G02X-5.838Y115.58I-1.U-14.162V4.42K-14.L13.433
G01X-6.657Y115.436U-14.084V4.564
X-7.473Y115.273U-14.008V4.727
X-8.284Y115.091U-13.938V4.909
X-9.091Y114.891U-13.872V5.109
X-9.893Y114.672U-13.811V5.328
X-10.691Y114.434U-13.753V5.566
X-11.482Y114.178U-13.703V5.822
X-12.267Y113.905U-13.659V6.095
X-13.046Y113.613U-13.621V6.387
X-13.817Y113.303U-13.59V6.697
X-14.582Y112.975U-13.566V7.025
X-15.339Y112.63U-13.55V7.37
X-16.087Y112.268U-13.543V7.732
X-16.827Y111.888U-13.543V8.112
X-17.558Y111.492U-13.553V8.508
X-18.279Y111.078U-13.573V8.922
X-18.991Y110.648U-13.602V9.352
X-19.693Y110.202U-13.64V9.798
X-20.385Y109.74U-13.689V10.26
X-21.065Y109.262U-13.75V10.738
X-21.734Y108.768U-13.822V11.232
X-22.392Y108.259U-13.904V11.741
X-23.038Y107.736U-13.999V12.264
X-23.671Y107.197U-14.107V12.803
X-24.292Y106.644U-14.227V13.356
X-24.9Y106.076U-14.359V13.924
X-25.495Y105.495U-14.505V14.505
X-26.076Y104.9U-13.924V14.359
X-26.644Y104.292U-13.356V14.227
X-27.197Y103.671U-12.803V14.107
X-27.736Y103.038U-12.264V13.999
X-28.259Y102.392U-11.741V13.904
X-28.768Y101.734U-11.232V13.822
X-29.262Y101.065U-10.738V13.75
X-29.74Y100.385U-10.26V13.689
X-30.202Y99.693U-9.798V13.64
X-30.648Y98.991U-9.352V13.602
X-31.078Y98.279U-8.922V13.573
X-31.492Y97.558U-8.508V13.553
X-31.888Y96.827U-8.112V13.543
X-32.268Y96.087U-7.732V13.543
X-32.63Y95.339U-7.37V13.55
X-32.975Y94.582U-7.025V13.566
X-33.303Y93.817U-6.697V13.59
X-33.613Y93.046U-6.387V13.621
X-33.905Y92.267U-6.095V13.659
X-34.178Y91.482U-5.822V13.703
X-34.434Y90.691U-5.566V13.753
X-34.672Y89.893U-5.328V13.811
X-34.891Y89.091U-5.109V13.872
X-35.091Y88.284U-4.909V13.938
X-35.273Y87.473U-4.727V14.008
X-35.436Y86.657U-4.564V14.084
X-35.58Y85.838U-4.42V14.162
G02X-36.567Y85.I-0.987J0.162U-13.433V5.K-13.433L14.
G01X-55.U-5.V5.
Y75.U-5.V-5.
X-36.567U-13.433V-5.
G02X-35.58Y74.162J-1.U-4.42V-14.162K-13.433L-14.
G01X-35.436Y73.343U-4.564V-14.084
X-35.273Y72.527U-4.727V-14.008
X-35.091Y71.716U-4.909V-13.938
X-34.891Y70.909U-5.109V-13.872
X-34.672Y70.107U-5.328V-13.811
X-34.434Y69.309U-5.566V-13.753
X-34.178Y68.518U-5.822V-13.703
X-33.905Y67.733U-6.095V-13.659
X-33.613Y66.954U-6.387V-13.621
X-33.303Y66.183U-6.697V-13.59
X-32.975Y65.418U-7.025V-13.566
X-32.63Y64.661U-7.37V-13.55
X-32.268Y63.913U-7.732V-13.543
X-31.888Y63.173U-8.112V-13.543
X-31.492Y62.442U-8.508V-13.553
X-31.078Y61.721U-8.922V-13.573
X-30.648Y61.009U-9.352V-13.602
X-30.202Y60.307U-9.798V-13.64
X-29.74Y59.615U-10.26V-13.689
X-29.262Y58.935U-10.738V-13.75
X-28.768Y58.266U-11.232V-13.822
X-28.259Y57.608U-11.741V-13.904
X-27.736Y56.962U-12.264V-13.999
X-27.197Y56.329U-12.803V-14.107
X-26.644Y55.708U-13.356V-14.227
X-26.076Y55.1U-13.924V-14.359
X-25.495Y54.505U-14.505V-14.505
X-24.9Y53.924U-14.359V-13.924
X-24.292Y53.356U-14.227V-13.356
X-23.671Y52.803U-14.107V-12.803
X-23.038Y52.264U-13.999V-12.264
X-22.392Y51.741U-13.904V-11.741
X-21.734Y51.232U-13.822V-11.232
X-21.065Y50.738U-13.75V-10.738
X-20.385Y50.26U-13.689V-10.26
X-19.693Y49.798U-13.64V-9.798
X-18.991Y49.352U-13.602V-9.352
X-18.279Y48.922U-13.573V-8.922
X-17.558Y48.508U-13.553V-8.508
X-16.827Y48.112U-13.543V-8.112
X-16.087Y47.732U-13.543V-7.732
X-15.339Y47.37U-13.55V-7.37
X-14.582Y47.025U-13.566V-7.025
X-13.817Y46.697U-13.59V-6.697
X-13.046Y46.387U-13.621V-6.387
X-12.267Y46.095U-13.659V-6.095
X-11.482Y45.822U-13.703V-5.822
X-10.691Y45.566U-13.753V-5.566
X-9.893Y45.328U-13.811V-5.328
X-9.091Y45.109U-13.872V-5.109
X-8.284Y44.909U-13.938V-4.909
X-7.473Y44.727U-14.008V-4.727
X-6.657Y44.564U-14.084V-4.564
X-5.838Y44.42U-14.162V-4.42
G02X-5.Y43.433I-0.162J-0.987U-5.V-13.433K-14.L-13.433
G01Y25.U-5.V-5.
X-3.U0.V-5.
G40Y17.V0.
M43
M40
M50
M00
G90G00X0.Y10.
M60
M83
M80
S924
G01Y13.F0.9
S1071
G41D140Y25.V-5.F2.
X-3.U0.V-5.
M01
G40Y17.V0.
M43
M40
M50
M02
%
