%
(MILL=FANUC)
(INIT=X0.Y0.Z50.)
(T=1 DIA=10. NAME=EMS)
(T=2 DIA=5. NAME=EMS)
(T=3 DIA=5. NAME=EML)
(T=4 DIA=2.5 NAME=EML)
(T=5 DIA=10. NAME=EML)
(T=6 DIA=3. NAME=CDA)
(T=7 DIA=8. NAME=DRN)
(T=8 DIA=5. NAME=EMZ)
(D=1 OFFSET=2.7)
(D=2 OFFSET=1.25)
(D=3 OFFSET=5.)
O1000
G17G90G80G40G49
(POCKET1)
G91G28Z0
G28X0Y0
T1
M06
T2
G90G00G54X0.Y0.
G43Z50.H1
G90
S1100M03
M08
G00X24.7Y-24.7
Z3.
G01Z1.F100
Z-5.F35
G91M98P2000
G90G00Z3.
X24.7
G01Z-4.F100
Z-9.5F35
G91M98P2000
G90G00Z30.
(POCKET2)
M09
M05
G49G91G28Z0
G91G28X0Y0
M06
T3
G90G00G54X0.Y0.
G43Z50.H2
G90
S1200M03
M08
X22.Y-22.
Z-6.5
G01Z-8.5F100
Z-9.75F35
G91M98P2001
G90G00Z-6.5
X22.
G01Z-8.75F100
Z-10.F35
G91M98P2001
G90G00Z30.
(OUTLINE1)
M09
M05
G49G91G28Z0
G91G28X0Y0
M06
T4
G90G00G54X0.Y0.
G43Z50.H3
G90
S1300M03
M08
X31.3Y-1.
Z3.
G01Z-2.F100
Z-3.F50
G91M98P2002
G90Y-1.
Z-5.F100
Z-6.F50
G91M98P2002
G90Y-1.
Z-8.F100
Z-9.F50
G91M98P2002
G90Y-1.
Z-10.F50
G91M98P2002
G90G00Z30.
X23.677Y1.044
Z3.
G01Z-2.F100
Z-3.F50
G91M98P2003
G90Y1.044
Z-5.F100
Z-6.F50
G91M98P2003
G90Y1.044
Z-8.F100
Z-9.F50
G91M98P2003
G90Y1.044
Z-10.F50
G91M98P2003
G90G00Z30.
(OUTLINE2)
M09
M05
G49G91G28Z0
G91G28X0Y0
M06
T5
G90G00G54X0.Y0.
G43Z50.H4
G90
S1400M03
M08
X-32.75Y1.
Z3.
G01Z-2.F100
Z-3.F50
G91M98P2004
G90Y1.
Z-5.F100
Z-6.F50
G91M98P2004
G90Y1.
Z-8.F100
Z-9.F50
G91M98P2004
G90Y1.
Z-10.F50
G91M98P2004
G90G00Z30.
X-22.25Y0.
Z3.
G01Z-2.F100
Z-3.F50
G91M98P2005
G90Z-5.F100
Z-6.F50
G91M98P2005
G90Z-8.F100
Z-9.F50
G91M98P2005
G90Z-10.F50
G91M98P2005
G90G00Z30.
(OUTLINE3)
M09
M05
G49G91G28Z0
G91G28X0Y0
M06
T6
G90G00G54X0.Y0.
G43Z50.H5
G90
S1500M03
M08
X-1.Y56.
Z3.
G01Z-4.F100
Z-5.F50
G91M98P2006
G90X-1.
Z-9.F100
Z-10.F50
G91M98P2006
G90X-1.
Z-14.F100
Z-15.F50
G91M98P2006
G90X-1.
Z-19.F100
Z-20.F50
G91M98P2006
G90G00Z30.
(HOLE)
M09
M05
G49G91G28Z0
G91G28X0Y0
M06
T7
G90G00G54X0.Y0.
G43Z50.H6
G90
S1600M03
M08
G00X52.5Y-40.
G99G81Z-1.R2.F160K0
G91M98P3000
G90G80G00Z50.
M09
M05
G49G91G28Z0
G91G28X0Y0
M06
T8
G90G00G54X0.Y0.
G43Z50.H7
G90
S1700M03
M08
G00X52.5Y-40.
G99G83Z-5.R2.Q0.8F170K0
G91M98P3000
G90G80G00Z50.
M09
M05
G49G91G28Z0
G91G28X0Y0
M06
G90G00G54X0.Y0.
G43Z50.H8
G90
S1800M03
M08
G00X52.5Y-40.
G99G83Z-20.R2.Q0.5F180K0
G91M98P3000
G90G80G00Z50.
M09
M05
G49G91G28Z0
M30

O2000
G01Y7.15F110
G02X-7.15Y-7.15I-24.7J17.55
G01X7.15
X4.8
Y42.25
X-4.8
Y7.15
X-7.15
G02X7.15Y-7.15I-17.55J-24.7
G01X4.8
Y11.95
X-47.05
Y-4.8
X-7.15
Y-7.15
G02X7.15Y7.15I24.7J-17.55
G01Y4.8
X-11.95
Y-29.5
X4.
G02X51.I25.5
X-51.I-25.5
G01X-4.
Y-17.55
X4.8
Y-7.15
X7.15
G02X-7.15Y7.15I17.55J24.7
G01X-4.8
Y-11.95
X59.
Y4.8
X-1.
M99
O2001
G01Y6.348F120
G02X-6.348Y-6.348I-22.J15.652
G01X6.348
X2.
Y15.
G02X-17.Y-17.I-24.J7.
G01X17.
Y2.
X2.
Y37.652
X-2.
X-2.
Y6.348
X-6.348
G02X6.348Y-6.348I-15.652J-22.
G01X2.
Y8.348
X-17.
G02X17.Y-17.I-7.J-24.
G01Y8.652
X2.
Y10.348
X-41.652
Y-2.
Y-2.
X-6.348
Y-6.348
G02X6.348Y6.348I22.J-15.652
G01Y2.
X-8.348
Y-17.
G02X17.Y17.I24.J-7.
G01X-8.652
Y2.
X-10.348
Y-26.
X3.
G02X46.I23.
X-46.I-23.
G01X-3.
Y-15.652
X2.
X2.
Y-6.348
X6.348
G02X-6.348Y6.348I15.652J22.
G01X-2.
Y-8.348
X17.
G02X-17.Y17.I7.J24.
G01Y-8.652
X-2.
Y-10.348
X52.
Y4.
X2.
Y50.
X-56.
Y-56.
X56.
Y6.
X2.
Y52.
X-60.
Y-60.
X60.
Y8.
X2.
Y52.
G03X-2.Y2.I-2.
G01X-60.
G03X-2.Y-2.J-2.
G01Y-60.
G03X2.Y-2.I2.
G01X60.
G03X2.Y2.J2.
G01Y8.
X-0.5
M99
O2002
G41D1G01Y-3.7F130
G03X3.7Y3.7J3.7
G01Y31.
G03X-5.Y5.I-5.
G01X-60.
G03X-5.Y-5.J-5.
G01Y-60.
G03X5.Y-5.I5.
G01X60.
G03X5.Y5.J5.
G01Y31.
G03X-3.7Y3.7I-3.7
G40G01Y-3.7
M99
O2003
G41D1G01X-0.163Y3.696F130
G03X-3.533Y-3.859I0.163J-3.696
G02X-39.981Y-0.881I-19.981J-0.881
X39.981Y-0.88I20.
G03X3.533Y-3.86I3.696J-0.163
G40G01X0.163Y3.697
M99
O2004
G41D2G01Y2.25F140
G03X-2.25Y-2.25J-2.25
G01Y-31.
G03X5.Y-5.I5.
G01X60.
G03X5.Y5.J5.
G01Y60.
G03X-5.Y5.I-5.
G01X-60.
G03X-5.Y-5.J-5.
G01Y-31.
G03X2.25Y-2.25I2.25
G40G01Y2.25
M99
O2005
G41D2G01Y-2.25F140
G03X2.25Y2.25J2.25
G02X40.I20.
X-40.I-20.
G03X-2.25Y2.25I-2.25
G40G01Y-2.25
M99
O2006
G41D3G01X-6.F150
G03X6.Y-6.I6.
G01X63.5
Y-100.
X-125.
Y100.
X63.5
G03X6.Y6.J6.
G40G01X-6.
M99
O3000
X0.Y0.
Y80.
X-105.
Y-80.
M99
%
