%
(MILL=FANUC)
(INIT=X0.Y0.Z50.)
(T=1 DIA=3. NAME=EMB)
O1000
N1
G17G90G00G80G40G49
N2
G91G28Z0
G90G00X0Y0
T1M06
S610M03
G43Z50.H1
M08
G00X64.561Y267.288
Z3.
G01Z1.061F30
Y268.288F16
G03X63.561Y267.288J-1.
G01Y266.288
Y243.743
X36.439
Y270.864
X63.561
Y266.288
Y265.288
G03X64.561Y264.288I1.
G01Y265.288
X65.242Y267.288
Z0.379F30
Y268.288F16
G03X64.242Y267.288J-1.
G01Y266.288
Y243.061
X35.758
Y271.546
X64.242
Y266.288
Y265.288
G03X65.242Y264.288I1.
G01Y265.288
X65.924Y267.288
Z-0.303F30
Y268.288F16
G03X64.924Y267.288J-1.
G01Y266.288
Y242.379
X35.076
Y272.228
X64.924
Y266.288
Y265.288
G03X65.924Y264.288I1.
G01Y265.288
X66.606Y267.288
Z-0.985F30
Y268.288F16
G03X65.606Y267.288J-1.
G01Y266.288
Y241.697
X34.394
Y272.91
X65.606
Y266.288
Y265.288
G03X66.606Y264.288I1.
G01Y265.288
X67.288Y267.288
Z-1.667F30
Y268.288F16
G03X66.288Y267.288J-1.
G01Y266.288
Y241.016
X33.712
Y273.591
X66.288
Y266.288
Y265.288
G03X67.288Y264.288I1.
G01Y265.288
X67.97Y267.288
Z-2.348F30
Y268.288F16
G03X66.97Y267.288J-1.
G01Y266.288
Y240.334
X33.03
Y274.273
X66.97
Y266.288
Y265.288
G03X67.97Y264.288I1.
G01Y265.288
X68.652Y267.288
Z-3.03F30
Y268.288F16
G03X67.652Y267.288J-1.
G01Y266.288
Y239.652
X32.348
Y274.955
X67.652
Y266.288
Y265.288
G03X68.652Y264.288I1.
G01Y265.288
X69.333Y267.288
Z-3.712F30
Y268.288F16
G03X68.333Y267.288J-1.
G01Y266.288
Y238.97
X31.667
Y275.637
X68.333
Y266.288
Y265.288
G03X69.333Y264.288I1.
G01Y265.288
X70.015Y267.288
Z-4.394F30
Y268.288F16
G03X69.015Y267.288J-1.
G01Y266.288
Y238.288
X30.985
Y276.319
X69.015
Y266.288
Y265.288
G03X70.015Y264.288I1.
G01Y265.288
X70.697Y267.288
Z-5.076F30
Y268.288F16
G03X69.697Y267.288J-1.
G01Y266.288
Y237.606
X30.303
Y277.001
X69.697
Y266.288
Y265.288
G03X70.697Y264.288I1.
G01Y265.288
X71.379Y267.288
Z-5.758F30
Y268.288F16
G03X70.379Y267.288J-1.
G01Y266.288
Y236.925
X29.621
Y277.682
X70.379
Y266.288
Y265.288
G03X71.379Y264.288I1.
G01Y265.288
X72.061Y267.288
Z-6.439F30
Y268.288F16
G03X71.061Y267.288J-1.
G01Y266.288
Y236.243
X28.939
Y278.364
X71.061
Y266.288
Y265.288
G03X72.061Y264.288I1.
G01Y265.288
G00Z50.
S610
X163.498Y252.184
Z3.
G01Z1.5F30
Y253.184F16
G03X162.498Y252.184J-1.
G01Y251.184
Y250.803
G02X150.25Y238.555I-12.498J0.25
G01X149.75
G02X137.502Y250.803I0.25J12.497
G01Y251.303
G02X149.75Y263.55I12.498J-0.25
G01X150.25
G02X162.498Y251.303I-0.25J-12.498
G01Y251.184
Y250.184
G03X163.498Y249.184I1.
G01Y250.184
X164.496Y252.184
Z1.464F30
Y253.184F16
G03X163.496Y252.184J-1.
G01Y251.184
Y250.383
G02X150.67Y237.556I-12.575J-0.252
G01X149.33
G02X136.504Y250.383I-0.252J12.575
G01Y251.722
G02X149.33Y264.549I12.575J0.252
G01X150.67
G02X163.496Y251.722I0.252J-12.575
G01Y251.184
Y250.184
G03X164.496Y249.184I1.
G01Y250.184
X165.49Y252.184
Z1.358F30
Y253.184F16
G03X164.49Y252.184J-1.
G01Y251.184
Y249.408
G02X151.644Y236.563I-12.594J-0.252
G01X148.356
G02X135.51Y249.408I-0.252J12.594
G01Y252.697
G02X148.356Y265.542I12.594J0.252
G01X151.644
G02X164.49Y252.697I0.252J-12.594
G01Y251.184
Y250.184
G03X165.49Y249.184I1.
G01Y250.184
X166.473Y252.184
Z1.18F30
Y253.184F16
G03X165.473Y252.184J-1.
G01Y251.184
Y248.384
G02X152.669Y235.579I-12.554J-0.251
G01X147.331
G02X134.527Y248.384I-0.251J12.554
G01Y253.721
G02X147.331Y266.526I12.554J0.251
G01X152.669
G02X165.473Y253.721I0.251J-12.554
G01Y251.184
Y250.184
G03X166.473Y249.184I1.
G01Y250.184
X167.442Y252.184
Z0.933F30
Y253.184F16
G03X166.442Y252.184J-1.
G01Y251.184
Y247.314
G02X153.738Y234.611I-12.454J-0.249
G01X146.262
G02X133.558Y247.314I-0.249J12.454
G01Y254.791
G02X146.262Y267.494I12.454J0.249
G01X153.738
G02X166.442Y254.791I0.249J-12.454
G01Y251.184
Y250.184
G03X167.442Y249.184I1.
G01Y250.184
X168.39Y252.184
Z0.617F30
Y253.184F16
G03X167.39Y252.184J-1.
G01Y251.184
Y246.205
G02X154.847Y233.663I-12.297J-0.246
G01X145.153
G02X132.61Y246.205I-0.246J12.297
G01Y255.9
G02X145.153Y268.443I12.297J0.246
G01X154.847
G02X167.39Y255.9I0.246J-12.297
G01Y251.184
Y250.184
G03X168.39Y249.184I1.
G01Y250.184
X169.313Y252.184
Z0.235F30
Y253.184F16
G03X168.313Y252.184J-1.
G01Y251.184
Y245.062
G02X155.99Y232.739I-12.081J-0.242
G01X144.01
G02X131.687Y245.062I-0.242J12.081
G01Y257.043
G02X144.01Y269.366I12.081J0.242
G01X155.99
G02X168.313Y257.043I0.242J-12.081
G01Y251.184
Y250.184
G03X169.313Y249.184I1.
G01Y250.184
X170.207Y252.184
Z-0.212F30
Y253.184F16
G03X169.207Y252.184J-1.
G01Y251.184
Y243.892
G02X157.161Y231.846I-11.81J-0.236
G01X142.839
G02X130.793Y243.892I-0.236J11.81
G01Y258.214
G02X142.839Y270.26I11.81J0.236
G01X157.161
G02X169.207Y258.214I0.236J-11.81
G01Y251.184
Y250.184
G03X170.207Y249.184I1.
G01Y250.184
X171.066Y252.184
Z-0.722F30
Y253.184F16
G03X170.066Y252.184J-1.
G01Y251.184
Y242.699
G02X158.354Y230.986I-11.483J-0.23
G01X141.646
G02X129.934Y242.699I-0.23J11.483
G01Y259.406
G02X141.646Y271.119I11.483J0.23
G01X158.354
G02X170.066Y259.406I0.23J-11.483
G01Y251.184
Y250.184
G03X171.066Y249.184I1.
G01Y250.184
X171.887Y252.184
Z-1.292F30
Y253.184F16
G03X170.887Y252.184J-1.
G01Y251.184
Y241.49
G02X159.562Y230.165I-11.103J-0.222
G01X140.438
G02X129.113Y241.49I-0.222J11.103
G01Y260.615
G02X140.438Y271.94I11.103J0.222
G01X159.562
G02X170.887Y260.615I0.222J-11.103
G01Y251.184
Y250.184
G03X171.887Y249.184I1.
G01Y250.184
X172.666Y252.184
Z-1.92F30
Y253.184F16
G03X171.666Y252.184J-1.
G01Y251.184
Y240.272
G02X160.781Y229.387I-10.671J-0.213
G01X139.219
G02X128.334Y240.272I-0.213J10.671
G01Y261.833
G02X139.219Y272.718I10.671J0.213
G01X160.781
G02X171.666Y261.833I0.213J-10.671
G01Y251.184
Y250.184
G03X172.666Y249.184I1.
G01Y250.184
X173.397Y252.184
Z-2.601F30
Y253.184F16
G03X172.397Y252.184J-1.
G01Y251.184
Y239.05
G02X162.003Y228.656I-10.19J-0.204
G01X137.997
G02X127.603Y239.05I-0.204J10.19
G01Y263.055
G02X137.997Y273.45I10.19J0.204
G01X162.003
G02X172.397Y263.055I0.204J-10.19
G01Y251.184
Y250.184
G03X173.397Y249.184I1.
G01Y250.184
X174.078Y252.184
Z-3.332F30
Y253.184F16
G03X173.078Y252.184J-1.
G01Y251.184
Y237.83
G02X163.222Y227.975I-9.663J-0.193
G01X136.778
G02X126.922Y237.83I-0.193J9.663
G01Y264.275
G02X136.778Y274.131I9.663J0.193
G01X163.222
G02X173.078Y264.275I0.193J-9.663
G01Y251.184
Y250.184
G03X174.078Y249.184I1.
G01Y250.184
X174.705Y252.184
Z-4.11F30
Y253.184F16
G03X173.705Y252.184J-1.
G01Y251.184
Y236.62
G02X164.433Y227.347I-9.091J-0.182
G01X135.567
G02X126.295Y236.62I-0.182J9.091
G01Y265.485
G02X135.567Y274.758I9.091J0.182
G01X164.433
G02X173.705Y265.485I0.182J-9.091
G01Y251.184
Y250.184
G03X174.705Y249.184I1.
G01Y250.184
X175.275Y252.184
Z-4.931F30
Y253.184F16
G03X174.275Y252.184J-1.
G01Y251.184
Y235.425
G02X165.628Y226.778I-8.478J-0.17
G01X134.372
G02X125.725Y235.425I-0.17J8.478
G01Y266.68
G02X134.372Y275.328I8.478J0.17
G01X165.628
G02X174.275Y266.68I0.17J-8.478
G01Y251.184
Y250.184
G03X175.275Y249.184I1.
G01Y250.184
X175.785Y252.184
Z-5.791F30
Y253.184F16
G03X174.785Y252.184J-1.
G01Y251.184
Y234.25
G02X166.802Y226.268I-7.826J-0.157
G01X133.198
G02X125.215Y234.25I-0.157J7.826
G01Y267.855
G02X133.198Y275.838I7.826J0.157
G01X166.802
G02X174.785Y267.855I0.157J-7.826
G01Y251.184
Y250.184
G03X175.785Y249.184I1.
G01Y250.184
X176.232Y252.184
Z-6.684F30
Y253.184F16
G03X175.232Y252.184J-1.
G01Y251.184
Y233.103
G02X167.949Y225.82I-7.14J-0.143
G01X132.051
G02X124.768Y233.103I-0.143J7.14
G01Y269.002
G02X132.051Y276.285I7.14J0.143
G01X167.949
G02X175.232Y269.002I0.143J-7.14
G01Y251.184
Y250.184
G03X176.232Y249.184I1.
G01Y250.184
X176.615Y252.184
Z-7.608F30
Y253.184F16
G03X175.615Y252.184J-1.
G01Y251.184
Y231.989
G02X169.063Y225.438I-6.423J-0.128
G01X130.937
G02X124.385Y231.989I-0.128J6.423
G01Y270.116
G02X130.937Y276.667I6.423J0.128
G01X169.063
G02X175.615Y270.116I0.128J-6.423
G01Y251.184
Y250.184
G03X176.615Y249.184I1.
G01Y250.184
X176.93Y252.184
Z-8.556F30
Y253.184F16
G03X175.93Y252.184J-1.
G01Y251.184
Y230.914
G02X170.139Y225.122I-5.678J-0.114
G01X129.861
G02X124.07Y230.914I-0.114J5.678
G01Y271.191
G02X129.861Y276.983I5.678J0.114
G01X170.139
G02X175.93Y271.191I0.114J-5.678
G01Y251.184
Y250.184
G03X176.93Y249.184I1.
G01Y250.184
X177.178Y252.184
Z-9.524F30
Y253.184F16
G03X176.178Y252.184J-1.
G01Y251.184
Y229.882
G02X171.17Y224.875I-4.909J-0.098
G01X128.83
G02X123.822Y229.882I-0.098J4.909
G01Y272.223
G02X128.83Y277.23I4.909J0.098
G01X171.17
G02X176.178Y272.223I0.098J-4.909
G01Y251.184
Y250.184
G03X177.178Y249.184I1.
G01Y250.184
X177.355Y252.184
Z-10.508F30
Y253.184F16
G03X176.355Y252.184J-1.
G01Y251.184
Y228.901
G02X172.152Y224.698I-4.121J-0.082
G01X127.848
G02X123.645Y228.901I-0.082J4.121
G01Y273.205
G02X127.848Y277.408I4.121J0.082
G01X172.152
G02X176.355Y273.205I0.082J-4.121
G01Y251.184
Y250.184
G03X177.355Y249.184I1.
G01Y250.184
X177.462Y252.184
Z-11.501F30
Y253.184F16
G03X176.462Y252.184J-1.
G01Y251.184
Y227.973
G02X173.08Y224.591I-3.316J-0.066
G01X126.92
G02X123.538Y227.973I-0.066J3.316
G01Y274.132
G02X126.92Y277.514I3.316J0.066
G01X173.08
G02X176.462Y274.132I0.066J-3.316
G01Y251.184
Y250.184
G03X177.462Y249.184I1.
G01Y250.184
X177.498Y252.184
Z-12.5F30
Y253.184F16
G03X176.498Y252.184J-1.
G01Y251.184
Y227.105
G02X173.948Y224.555I-2.499J-0.05
G01X126.052
G02X123.502Y227.105I-0.05J2.5
G01Y275.001
G02X126.052Y277.55I2.499J0.05
G01X173.948
G02X176.498Y275.001I0.05J-2.5
G01Y251.184
Y250.184
G03X177.498Y249.184I1.
G01Y250.184
G00Z50.
G19X237.804Y251.689
Z3.
G01Z-12.5F30
Y252.689F16
Z-5.
G02Y259.189Z1.5J6.5
G01Y269.189
G02Y275.689Z-5.K-6.5
G01Z-12.5
Y276.689
X238.794
Y275.689
Z-5.
G03Y269.189Z1.5J-6.5
G01Y259.189
G03Y252.689Z-5.K-6.5
G01Z-12.5
Y251.689
X239.784
Y252.689
Z-5.
G02Y259.189Z1.5J6.5
G01Y269.189
G02Y275.689Z-5.K-6.5
G01Z-12.5
Y276.689
X240.774
Y275.689
Z-5.
G03Y269.189Z1.5J-6.5
G01Y259.189
G03Y252.689Z-5.K-6.5
G01Z-12.5
Y251.689
X241.763
Y252.689
Z-5.
G02Y259.189Z1.5J6.5
G01Y269.189
G02Y275.689Z-5.K-6.5
G01Z-12.5
Y276.689
X242.753
Y275.689
Z-5.
G03Y269.189Z1.5J-6.5
G01Y259.189
G03Y252.689Z-5.K-6.5
G01Z-12.5
Y251.689
X243.743
Y252.689
Z-5.
G02Y259.189Z1.5J6.5
G01Y269.189
G02Y275.689Z-5.K-6.5
G01Z-12.5
Y276.689
X244.733
Y275.689
Z-5.
G03Y269.189Z1.5J-6.5
G01Y259.189
G03Y252.689Z-5.K-6.5
G01Z-12.5
Y251.689
X245.723
Y252.689
Z-5.
G02Y259.189Z1.5J6.5
G01Y269.189
G02Y275.689Z-5.K-6.5
G01Z-12.5
Y276.689
X246.712
Y275.689
Z-5.
G03Y269.189Z1.5J-6.5
G01Y259.189
G03Y252.689Z-5.K-6.5
G01Z-12.5
Y251.689
X247.702
Y252.689
Z-5.
G02Y259.189Z1.5J6.5
G01Y269.189
G02Y275.689Z-5.K-6.5
G01Z-12.5
Y276.689
X248.692
Y275.689
Z-5.
G03Y269.189Z1.5J-6.5
G01Y259.189
G03Y252.689Z-5.K-6.5
G01Z-12.5
Y251.689
X249.682
Y252.689
Z-5.
G02Y259.189Z1.5J6.5
G01Y269.189
G02Y275.689Z-5.K-6.5
G01Z-12.5
Y276.689
X250.672
Y275.689
Z-5.
G03Y269.189Z1.5J-6.5
G01Y259.189
G03Y252.689Z-5.K-6.5
G01Z-12.5
Y251.689
X251.661
Y252.689
Z-5.
G02Y259.189Z1.5J6.5
G01Y269.189
G02Y275.689Z-5.K-6.5
G01Z-12.5
Y276.689
X252.651
Y275.689
Z-5.
G03Y269.189Z1.5J-6.5
G01Y259.189
G03Y252.689Z-5.K-6.5
G01Z-12.5
Y251.689
X253.641
Y252.689
Z-5.
G02Y259.189Z1.5J6.5
G01Y269.189
G02Y275.689Z-5.K-6.5
G01Z-12.5
Y276.689
X254.631
Y275.689
Z-5.
G03Y269.189Z1.5J-6.5
G01Y259.189
G03Y252.689Z-5.K-6.5
G01Z-12.5
Y251.689
X255.621
Y252.689
Z-5.
G02Y259.189Z1.5J6.5
G01Y269.189
G02Y275.689Z-5.K-6.5
G01Z-12.5
Y276.689
X256.61
Y275.689
Z-5.
G03Y269.189Z1.5J-6.5
G01Y259.189
G03Y252.689Z-5.K-6.5
G01Z-12.5
Y251.689
X257.6
Y252.689
Z-5.
G02Y259.189Z1.5J6.5
G01Y269.189
G02Y275.689Z-5.K-6.5
G01Z-12.5
Y276.689
X258.59
Y275.689
Z-5.
G03Y269.189Z1.5J-6.5
G01Y259.189
G03Y252.689Z-5.K-6.5
G01Z-12.5
Y251.689
X259.58
Y252.689
Z-5.
G02Y259.189Z1.5J6.5
G01Y269.189
G02Y275.689Z-5.K-6.5
G01Z-12.5
Y276.689
X260.57
Y275.689
Z-5.
G03Y269.189Z1.5J-6.5
G01Y259.189
G03Y252.689Z-5.K-6.5
G01Z-12.5
Y251.689
X261.559
Y252.689
Z-5.
G02Y259.189Z1.5J6.5
G01Y269.189
G02Y275.689Z-5.K-6.5
G01Z-12.5
Y276.689
X262.549
Y275.689
Z-5.
G03Y269.189Z1.5J-6.5
G01Y259.189
G03Y252.689Z-5.K-6.5
G01Z-12.5
Y251.689
X263.539
Y252.689
Z-5.
G02Y259.189Z1.5J6.5
G01Y269.189
G02Y275.689Z-5.K-6.5
G01Z-12.5
Y276.689
X264.529
Y275.689
Z-5.
G03Y269.189Z1.5J-6.5
G01Y259.189
G03Y252.689Z-5.K-6.5
G01Z-12.5
Y251.689
X265.519
Y252.689
Z-5.
G02Y259.189Z1.5J6.5
G01Y269.189
G02Y275.689Z-5.K-6.5
G01Z-12.5
Y276.689
X266.508
Y275.689
Z-5.
G03Y269.189Z1.5J-6.5
G01Y259.189
G03Y252.689Z-5.K-6.5
G01Z-12.5
Y251.689
X267.498
Y252.689
Z-5.
G02Y259.189Z1.5J6.5
G01Y269.189
G02Y275.689Z-5.K-6.5
G01Z-12.5
Y276.689
X268.488
Y275.689
Z-5.
G03Y269.189Z1.5J-6.5
G01Y259.189
G03Y252.689Z-5.K-6.5
G01Z-12.5
Y251.689
X269.478
Y252.689
Z-5.
G02Y259.189Z1.5J6.5
G01Y269.189
G02Y275.689Z-5.K-6.5
G01Z-12.5
Y276.689
X270.468
Y275.689
Z-5.
G03Y269.189Z1.5J-6.5
G01Y259.189
G03Y252.689Z-5.K-6.5
G01Z-12.5
Y251.689
X271.457
Y252.689
Z-5.
G02Y259.189Z1.5J6.5
G01Y269.189
G02Y275.689Z-5.K-6.5
G01Z-12.5
Y276.689
X272.447
Y275.689
Z-5.
G03Y269.189Z1.5J-6.5
G01Y259.189
G03Y252.689Z-5.K-6.5
G01Z-12.5
Y251.689
X273.437
Y252.689
Z-5.
G02Y259.189Z1.5J6.5
G01Y269.189
G02Y275.689Z-5.K-6.5
G01Z-12.5
Y276.689
X274.427
Y275.689
Z-5.
G03Y269.189Z1.5J-6.5
G01Y259.189
G03Y252.689Z-5.K-6.5
G01Z-12.5
Y251.689
X275.417
Y252.689
Z-5.
G02Y259.189Z1.5J6.5
G01Y269.189
G02Y275.689Z-5.K-6.5
G01Z-12.5
Y276.689
X276.406
Y275.689
Z-5.
G03Y269.189Z1.5J-6.5
G01Y259.189
G03Y252.689Z-5.K-6.5
G01Z-12.5
Y251.689
X277.396
Y252.689
Z-5.
G02Y259.189Z1.5J6.5
G01Y269.189
G02Y275.689Z-5.K-6.5
G01Z-12.5
Y276.689
X278.386
Y275.689
Z-5.
G03Y269.189Z1.5J-6.5
G01Y259.189
G03Y252.689Z-5.K-6.5
G01Z-12.5
Y251.689
X279.376
Y252.689
Z-5.
G02Y259.189Z1.5J6.5
G01Y269.189
G02Y275.689Z-5.K-6.5
G01Z-12.5
Y276.689
X280.366
Y275.689
Z-5.
G03Y269.189Z1.5J-6.5
G01Y259.189
G03Y252.689Z-5.K-6.5
G01Z-12.5
Y251.689
X281.355
Y252.689
Z-5.
G02Y259.189Z1.5J6.5
G01Y269.189
G02Y275.689Z-5.K-6.5
G01Z-12.5
Y276.689
X282.345
Y275.689
Z-5.
G03Y269.189Z1.5J-6.5
G01Y259.189
G03Y252.689Z-5.K-6.5
G01Z-12.5
Y251.689
X283.335
Y252.689
Z-5.
G02Y259.189Z1.5J6.5
G01Y269.189
G02Y275.689Z-5.K-6.5
G01Z-12.5
Y276.689
X284.325
Y275.689
Z-5.
G03Y269.189Z1.5J-6.5
G01Y259.189
G03Y252.689Z-5.K-6.5
G01Z-12.5
Y251.689
X285.314
Y252.689
Z-5.
G02Y259.189Z1.5J6.5
G01Y269.189
G02Y275.689Z-5.K-6.5
G01Z-12.5
Y276.689
X286.304
Y275.689
Z-5.
G03Y269.189Z1.5J-6.5
G01Y259.189
G03Y252.689Z-5.K-6.5
G01Z-12.5
Y251.689
G00Z50.
G18X352.537Y261.178
Z3.
G01Z-10.F30
Z-11.F16
X346.209
G03Z-10.457X345.579K0.636
G02X318.155K-2.043I-13.712
G03Z-11.X317.525K0.094I-0.629
G01X311.197
Z-10.
Y262.049
Z-11.
X317.181
G02Z-10.483X317.778K0.603
G03X345.956K-2.017I14.089
G02Z-11.X346.553K0.085I0.597
G01X352.537
Z-10.
Y262.939
Z-11.
X346.849
G03Z-10.505X346.281K0.574
G02X317.453K-1.995I-14.414
G03Z-11.X316.884K0.079I-0.568
G01X311.197
Z-10.
Y263.846
Z-11.
X316.636
G02Z-10.524X317.181K0.55
G03X346.553K-1.976I14.686
G02Z-11.X347.098K0.073I0.545
G01X352.537
Z-10.
Y264.766
Z-11.
X347.297
G03Z-10.539X346.772K0.53
G02X316.962K-1.961I-14.905
G03Z-11.X316.436K0.069I-0.526
G01X311.197
Z-10.
Y265.698
Z-11.
X316.286
G02Z-10.551X316.797K0.515
G03X346.936K-1.949I15.07
G02Z-11.X347.447K0.066I0.511
G01X352.537
Z-10.
Y266.637
Z-11.
X347.548
G03Z-10.559X347.046K0.506
G02X316.687K-1.941I-15.18
G03Z-11.X316.186K0.064I-0.501
G01X311.197
Z-10.
Y267.581
Z-11.
X316.136
G02Z-10.563X316.632K0.501
G03X347.101K-1.937I15.235
G02Z-11.X347.598K0.063I0.497
G01X352.537
Z-10.
Y268.526
Z-11.
X347.598
G03Z-10.563X347.101K0.501
G02X316.632K-1.937I-15.235
G03Z-11.X316.136K0.063I-0.497
G01X311.197
Z-10.
Y269.47
Z-11.
X316.186
G02Z-10.559X316.687K0.506
G03X347.046K-1.941I15.18
G02Z-11.X347.548K0.064I0.501
G01X352.537
Z-10.
Y270.409
Z-11.
X347.447
G03Z-10.551X346.936K0.515
G02X316.797K-1.949I-15.07
G03Z-11.X316.286K0.066I-0.511
G01X311.197
Z-10.
Y271.341
Z-11.
X316.436
G02Z-10.539X316.962K0.53
G03X346.772K-1.961I14.905
G02Z-11.X347.297K0.069I0.526
G01X352.537
Z-10.
Y272.261
Z-11.
X347.098
G03Z-10.524X346.553K0.55
G02X317.181K-1.976I-14.686
G03Z-11.X316.636K0.073I-0.545
G01X311.197
Z-10.
Y273.168
Z-11.
X316.884
G02Z-10.505X317.453K0.574
G03X346.281K-1.995I14.414
G02Z-11.X346.849K0.079I0.568
G01X352.537
Z-10.
Y274.058
Z-11.
X346.553
G03Z-10.483X345.956K0.603
G02X317.778K-2.017I-14.089
G03Z-11.X317.181K0.085I-0.597
G01X311.197
Z-10.
Y274.928
Z-11.
X317.525
G02Z-10.457X318.155K0.636
G03X345.579K-2.043I13.712
G02Z-11.X346.209K0.094I0.629
G01X352.537
Z-10.
G00Z50.
G19X344.925Y152.832
Z3.
G01Z-18.75F30
Y153.832F16
Z-13.5
G02Y161.08Z-6.252J7.248
G01Y164.08
G02Y171.328Z-13.5K-7.248
G01Z-18.75
Y172.328
Y172.844
X345.699
Y171.844
Z-13.5
G03Y164.08Z-5.736J-7.764
G01Y161.08
G03Y153.316Z-13.5K-7.764
G01Z-18.75
Y152.316
Y151.8
X346.472
Y152.8
Z-13.5
G02Y161.08Z-5.221J8.279
G01Y164.08
G02Y172.359Z-13.5K-8.279
G01Z-18.75
Y173.359
Y173.875
X347.245
Y172.875
Z-13.5
G03Y164.08Z-4.705J-8.795
G01Y161.08
G03Y152.285Z-13.5K-8.795
G01Z-18.75
Y151.285
Y150.769
X348.019
Y151.769
Z-13.5
G02Y161.08Z-4.189J9.311
G01Y164.08
G02Y173.391Z-13.5K-9.311
G01Z-18.75
Y174.391
Y174.817
X348.88
Y173.817
Z-13.5
G03Y164.08Z-3.763J-9.737
G01Y161.08
G03Y151.343Z-13.5K-9.737
G01Z-18.75
Y150.343
Y150.15
X349.82
Y151.15
Z-13.5
G02Y161.08Z-3.57J9.93
G01Y164.08
G02Y174.01Z-13.5K-9.93
G01Z-18.75
Y175.01
X350.78
Y174.958
Y173.958
Z-13.5
G03Y164.08Z-3.622J-9.878
G01Y161.08
G03Y151.202Z-13.5K-9.878
G01Z-18.75
Y150.202
X351.694
Y150.495
Y151.495
Z-13.5
G02Y161.08Z-3.916J9.584
G01Y164.08
G02Y173.664Z-13.5K-9.584
G01Z-18.75
Y174.664
X352.569
Y174.304
Y173.304
Z-13.5
G03Y164.08Z-4.276J-9.224
G01Y161.08
G03Y151.855Z-13.5K-9.224
G01Z-18.75
Y150.855
X353.475
Y151.128
Y152.128
Z-13.5
G02Y161.08Z-4.548J8.952
G01Y164.08
G02Y173.032Z-13.5K-8.952
G01Z-18.75
Y174.032
X354.404
Y173.849
Y172.849
Z-13.5
G03Y164.08Z-4.731J-8.769
G01Y161.08
G03Y152.311Z-13.5K-8.769
G01Z-18.75
Y151.311
X355.346
Y151.402
Y152.402
Z-13.5
G02Y161.08Z-4.822J8.678
G01Y164.08
G02Y172.758Z-13.5K-8.678
G01Z-18.75
Y173.758
Y173.76
X356.292
Y172.76
Z-13.5
G03Y164.08Z-4.82J-8.68
G01Y161.08
G03Y152.4Z-13.5K-8.68
G01Z-18.75
Y151.4
Y151.306
X357.234
Y152.306
Z-13.5
G02Y161.08Z-4.726J8.774
G01Y164.08
G02Y172.854Z-13.5K-8.774
G01Z-18.75
Y173.854
Y174.04
X358.162
Y173.04
Z-13.5
G03Y164.08Z-4.54J-8.96
G01Y161.08
G03Y152.12Z-13.5K-8.96
G01Z-18.75
Y151.12
Y150.844
X359.067
Y151.844
Z-13.5
G02Y161.08Z-4.264J9.236
G01Y164.08
G02Y173.315Z-13.5K-9.236
G01Z-18.75
Y174.315
Y174.679
X359.941
Y173.679
Z-13.5
G03Y164.08Z-3.901J-9.599
G01Y161.08
G03Y151.481Z-13.5K-9.599
G01Z-18.75
Y150.481
Y150.034
X360.775
Y151.034
Z-13.5
G02Y161.08Z-3.454J10.046
G01Y164.08
G02Y174.125Z-13.5K-10.046
G01Z-18.75
Y175.125
Y175.652
X361.562
Y174.652
Z-13.5
G03Y164.08Z-2.928J-10.572
G01Y161.08
G03Y150.508Z-13.5K-10.572
G01Z-18.75
Y149.508
Y148.907
X362.293
Y149.907
Z-13.5
G02Y161.08Z-2.327J11.173
G01Y164.08
G02Y175.252Z-13.5K-11.173
G01Z-18.75
Y176.252
Y176.922
X362.962
Y175.922
Z-13.5
G03Y164.08Z-1.658J-11.842
G01Y161.08
G03Y149.238Z-13.5K-11.842
G01Z-18.75
Y148.238
Y147.506
X363.562
Y148.506
Z-13.5
G02Y161.08Z-0.926J12.574
G01Y164.08
G02Y176.653Z-13.5K-12.574
G01Z-18.75
Y177.653
Y178.357
X364.173
Y177.357
Z-13.5
G03Y164.08Z-0.223J-13.277
G01Y161.08
G03Y147.803Z-13.5K-13.277
G01Z-18.75
Y146.803
Y146.203
X364.886
Y147.203
Z-13.5
G02Y161.08Z0.377J13.877
G01Y164.08
G02Y177.957Z-13.5K-13.877
G01Z-18.75
Y178.957
Y179.439
X365.683
Y178.439
Z-13.5
G03Y164.08Z0.859J-14.359
G01Y161.08
G03Y146.721Z-13.5K-14.359
G01Z-18.75
Y145.721
Y145.368
X366.546
Y146.368
Z-13.5
G02Y161.08Z1.212J14.712
G01Y164.08
G02Y178.792Z-13.5K-14.712
G01Z-18.75
Y179.792
Y180.007
X367.452
Y179.007
Z-13.5
G03Y164.08Z1.428J-14.928
G01Y161.08
G03Y146.152Z-13.5K-14.928
G01Z-18.75
Y145.152
Y145.08
X368.381
Y146.08
Z-13.5
G02Y161.08Z1.5J15.
G01Y164.08
G02Y179.08Z-13.5K-15.
G01Z-18.75
Y180.08
X369.373
Y179.08
Z-13.5
G03Y164.08Z1.5J-15.
G01Y161.08
G03Y146.08Z-13.5K-15.
G01Z-18.75
Y145.08
X370.365
Y146.08
Z-13.5
G02Y161.08Z1.5J15.
G01Y164.08
G02Y179.08Z-13.5K-15.
G01Z-18.75
Y180.08
X371.357
Y179.08
Z-13.5
G03Y164.08Z1.5J-15.
G01Y161.08
G03Y146.08Z-13.5K-15.
G01Z-18.75
Y145.08
X372.348
Y146.08
Z-13.5
G02Y161.08Z1.5J15.
G01Y164.08
G02Y179.08Z-13.5K-15.
G01Z-18.75
Y180.08
X373.34
Y179.08
Z-13.5
G03Y164.08Z1.5J-15.
G01Y161.08
G03Y146.08Z-13.5K-15.
G01Z-18.75
Y145.08
X374.332
Y146.08
Z-13.5
G02Y161.08Z1.5J15.
G01Y164.08
G02Y179.08Z-13.5K-15.
G01Z-18.75
Y180.08
X375.323
Y179.08
Z-13.5
G03Y164.08Z1.5J-15.
G01Y161.08
G03Y146.08Z-13.5K-15.
G01Z-18.75
Y145.08
X376.315
Y146.08
Z-13.5
G02Y161.08Z1.5J15.
G01Y164.08
G02Y179.08Z-13.5K-15.
G01Z-18.75
Y180.08
X377.307
Y179.08
Z-13.5
G03Y164.08Z1.5J-15.
G01Y161.08
G03Y146.08Z-13.5K-15.
G01Z-18.75
Y145.08
X378.299
Y146.08
Z-13.5
G02Y161.08Z1.5J15.
G01Y164.08
G02Y179.08Z-13.5K-15.
G01Z-18.75
Y180.08
X379.29
Y179.08
Z-13.5
G03Y164.08Z1.5J-15.
G01Y161.08
G03Y146.08Z-13.5K-15.
G01Z-18.75
Y145.08
X380.282
Y146.08
Z-13.5
G02Y161.08Z1.5J15.
G01Y164.08
G02Y179.08Z-13.5K-15.
G01Z-18.75
Y180.08
X381.274
Y179.08
Z-13.5
G03Y164.08Z1.5J-15.
G01Y161.08
G03Y146.08Z-13.5K-15.
G01Z-18.75
Y145.08
X382.265
Y146.08
Z-13.5
G02Y161.08Z1.5J15.
G01Y164.08
G02Y179.08Z-13.5K-15.
G01Z-18.75
Y180.08
X383.257
Y179.08
Z-13.5
G03Y164.08Z1.5J-15.
G01Y161.08
G03Y146.08Z-13.5K-15.
G01Z-18.75
Y145.08
G00Z50.
G19X237.804Y151.689
Z3.
G01Z-12.5F30
Y152.689F16
Z-5.
G02Y159.189Z1.5J6.5
G01Y169.189
G02Y175.689Z-5.K-6.5
G01Z-12.5
Y176.689
X238.794
Y175.689
Z-4.921
G03Y169.268Z1.5J-6.421
G01Y159.109
G03Y152.689Z-4.921K-6.421
G01Z-12.5
Y151.689
X239.784
Y152.689
Z-4.842
G02Y159.03Z1.5J6.342
G01Y169.347
G02Y175.689Z-4.842K-6.342
G01Z-12.5
Y176.689
X240.774
Y175.689
Z-4.762
G03Y169.426Z1.5J-6.262
G01Y158.951
G03Y152.689Z-4.762K-6.262
G01Z-12.5
Y151.689
X241.763
Y152.689
Z-4.683
G02Y158.872Z1.5J6.183
G01Y169.505
G02Y175.689Z-4.683K-6.183
G01Z-12.5
Y176.689
X242.753
Y175.689
Z-4.604
G03Y169.585Z1.5J-6.104
G01Y158.793
G03Y152.689Z-4.604K-6.104
G01Z-12.5
Y151.689
X243.743
Y152.689
Z-4.525
G02Y158.714Z1.5J6.025
G01Y169.664
G02Y175.689Z-4.525K-6.025
G01Z-12.5
Y176.689
X244.733
Y175.689
Z-4.446
G03Y169.743Z1.5J-5.946
G01Y158.634
G03Y152.689Z-4.446K-5.946
G01Z-12.5
Y151.689
X245.723
Y152.689
Z-4.367
G02Y158.555Z1.5J5.867
G01Y169.822
G02Y175.689Z-4.367K-5.867
G01Z-12.5
Y176.689
X246.712
Y175.689
Z-4.287
G03Y169.901Z1.5J-5.787
G01Y158.476
G03Y152.689Z-4.287K-5.787
G01Z-12.5
Y151.689
X247.702
Y152.689
Z-4.208
G02Y158.397Z1.5J5.708
G01Y169.98
G02Y175.689Z-4.208K-5.708
G01Z-12.5
Y176.689
X248.692
Y175.689
Z-4.129
G03Y170.06Z1.5J-5.629
G01Y158.318
G03Y152.689Z-4.129K-5.629
G01Z-12.5
Y151.689
X249.682
Y152.689
Z-4.05
G02Y158.238Z1.5J5.55
G01Y170.139
G02Y175.689Z-4.05K-5.55
G01Z-12.5
Y176.689
X250.672
Y175.689
Z-3.971
G03Y170.218Z1.5J-5.471
G01Y158.159
G03Y152.689Z-3.971K-5.471
G01Z-12.5
Y151.689
X251.661
Y152.689
Z-3.891
G02Y158.08Z1.5J5.391
G01Y170.297
G02Y175.689Z-3.891K-5.391
G01Z-12.5
Y176.689
X252.651
Y175.689
Z-3.812
G03Y170.376Z1.5J-5.312
G01Y158.001
G03Y152.689Z-3.812K-5.312
G01Z-12.5
Y151.689
X253.641
Y152.689
Z-3.733
G02Y157.922Z1.5J5.233
G01Y170.456
G02Y175.689Z-3.733K-5.233
G01Z-12.5
Y176.689
X254.631
Y175.689
Z-3.654
G03Y170.535Z1.5J-5.154
G01Y157.843
G03Y152.689Z-3.654K-5.154
G01Z-12.5
Y151.689
X255.621
Y152.689
Z-3.575
G02Y157.763Z1.5J5.075
G01Y170.614
G02Y175.689Z-3.575K-5.075
G01Z-12.5
Y176.689
X256.61
Y175.689
Z-3.496
G03Y170.693Z1.5J-4.996
G01Y157.684
G03Y152.689Z-3.496K-4.996
G01Z-12.5
Y151.689
X257.6
Y152.689
Z-3.416
G02Y157.605Z1.5J4.916
G01Y170.772
G02Y175.689Z-3.416K-4.916
G01Z-12.5
Y176.689
X258.59
Y175.689
Z-3.337
G03Y170.851Z1.5J-4.837
G01Y157.526
G03Y152.689Z-3.337K-4.837
G01Z-12.5
Y151.689
X259.58
Y152.689
Z-3.258
G02Y157.447Z1.5J4.758
G01Y170.931
G02Y175.689Z-3.258K-4.758
G01Z-12.5
Y176.689
X260.57
Y175.689
Z-3.179
G03Y171.01Z1.5J-4.679
G01Y157.367
G03Y152.689Z-3.179K-4.679
G01Z-12.5
Y151.689
X261.559
Y152.689
Z-3.1
G02Y157.288Z1.5J4.6
G01Y171.089
G02Y175.689Z-3.1K-4.6
G01Z-12.5
Y176.689
X262.549
Y175.689
Z-3.02
G03Y171.168Z1.5J-4.52
G01Y157.209
G03Y152.689Z-3.02K-4.52
G01Z-12.5
Y151.689
X263.539
Y152.689
Z-2.941
G02Y157.13Z1.5J4.441
G01Y171.247
G02Y175.689Z-2.941K-4.441
G01Z-12.5
Y176.689
X264.529
Y175.689
Z-2.862
G03Y171.327Z1.5J-4.362
G01Y157.051
G03Y152.689Z-2.862K-4.362
G01Z-12.5
Y151.689
X265.519
Y152.689
Z-2.783
G02Y156.971Z1.5J4.283
G01Y171.406
G02Y175.689Z-2.783K-4.283
G01Z-12.5
Y176.689
X266.508
Y175.689
Z-2.704
G03Y171.485Z1.5J-4.204
G01Y156.892
G03Y152.689Z-2.704K-4.204
G01Z-12.5
Y151.689
X267.498
Y152.689
Z-2.624
G02Y156.813Z1.5J4.124
G01Y171.564
G02Y175.689Z-2.624K-4.124
G01Z-12.5
Y176.689
X268.488
Y175.689
Z-2.545
G03Y171.643Z1.5J-4.045
G01Y156.734
G03Y152.689Z-2.545K-4.045
G01Z-12.5
Y151.689
X269.478
Y152.689
Z-2.466
G02Y156.655Z1.5J3.966
G01Y171.723
G02Y175.689Z-2.466K-3.966
G01Z-12.5
Y176.689
X270.468
Y175.689
Z-2.387
G03Y171.802Z1.5J-3.887
G01Y156.576
G03Y152.689Z-2.387K-3.887
G01Z-12.5
Y151.689
X271.457
Y152.689
Z-2.308
G02Y156.496Z1.5J3.808
G01Y171.881
G02Y175.689Z-2.308K-3.808
G01Z-12.5
Y176.689
X272.447
Y175.689
Z-2.229
G03Y171.96Z1.5J-3.729
G01Y156.417
G03Y152.689Z-2.229K-3.729
G01Z-12.5
Y151.689
X273.437
Y152.689
Z-2.149
G02Y156.338Z1.5J3.649
G01Y172.039
G02Y175.689Z-2.149K-3.649
G01Z-12.5
Y176.689
X274.427
Y175.689
Z-2.07
G03Y172.118Z1.5J-3.57
G01Y156.259
G03Y152.689Z-2.07K-3.57
G01Z-12.5
Y151.689
X275.417
Y152.689
Z-1.991
G02Y156.18Z1.5J3.491
G01Y172.198
G02Y175.689Z-1.991K-3.491
G01Z-12.5
Y176.689
X276.406
Y175.689
Z-1.912
G03Y172.277Z1.5J-3.412
G01Y156.1
G03Y152.689Z-1.912K-3.412
G01Z-12.5
Y151.689
X277.396
Y152.689
Z-1.833
G02Y156.021Z1.5J3.333
G01Y172.356
G02Y175.689Z-1.833K-3.333
G01Z-12.5
Y176.689
X278.386
Y175.689
Z-1.753
G03Y172.435Z1.5J-3.253
G01Y155.942
G03Y152.689Z-1.753K-3.253
G01Z-12.5
Y151.689
X279.376
Y152.689
Z-1.674
G02Y155.863Z1.5J3.174
G01Y172.514
G02Y175.689Z-1.674K-3.174
G01Z-12.5
Y176.689
X280.366
Y175.689
Z-1.595
G03Y172.594Z1.5J-3.095
G01Y155.784
G03Y152.689Z-1.595K-3.095
G01Z-12.5
Y151.689
X281.355
Y152.689
Z-1.516
G02Y155.705Z1.5J3.016
G01Y172.673
G02Y175.689Z-1.516K-3.016
G01Z-12.5
Y176.689
X282.345
Y175.689
Z-1.437
G03Y172.752Z1.5J-2.937
G01Y155.625
G03Y152.689Z-1.437K-2.937
G01Z-12.5
Y151.689
X283.335
Y152.689
Z-1.358
G02Y155.546Z1.5J2.858
G01Y172.831
G02Y175.689Z-1.358K-2.858
G01Z-12.5
Y176.689
X284.325
Y175.689
Z-1.278
G03Y172.91Z1.5J-2.778
G01Y155.467
G03Y152.689Z-1.278K-2.778
G01Z-12.5
Y151.689
X285.314
Y152.689
Z-1.199
G02Y155.388Z1.5J2.699
G01Y172.989
G02Y175.689Z-1.199K-2.699
G01Z-12.5
Y176.689
X286.304
Y175.689
Z-1.12
G03Y173.069Z1.5J-2.62
G01Y155.309
G03Y152.689Z-1.12K-2.62
G01Z-12.5
Y151.689
G00Z50.
G17
X164.004Y157.765
Z3.
G01Z1.413F30
Y158.765F16
G03X163.004Y157.765J-1.
G01Y156.765
Y144.963
G02X160.Y141.96I-3.004
G01X140.
G02X136.996Y144.963J3.004
G01Y166.422
G02X140.Y169.425I3.004
G01X160.
G02X163.004Y166.422J-3.004
G01Y156.765
Y155.765
G03X164.004Y154.765I1.
G01Y155.765
X164.894Y157.765
Z1.063F30
Y158.765F16
G03X163.894Y157.765J-1.
G01Y156.765
Y145.052
G02X160.802Y141.96I-3.093
G01X139.198
G02X136.106Y145.052J3.093
G01Y166.333
G02X139.198Y169.425I3.093
G01X160.802
G02X163.894Y166.333J-3.093
G01Y156.765
Y155.765
G03X164.894Y154.765I1.
G01Y155.765
X165.761Y157.765
Z0.657F30
Y158.765F16
G03X164.761Y157.765J-1.
G01Y156.765
Y145.002
G02X161.582Y141.823I-3.179
G01X138.418
G02X135.239Y145.002J3.179
G01Y166.383
G02X138.418Y169.562I3.179
G01X161.582
G02X164.761Y166.383J-3.179
G01Y156.765
Y155.765
G03X165.761Y154.765I1.
G01Y155.765
X166.6Y157.765
Z0.197F30
Y158.765F16
G03X165.6Y157.765J-1.
G01Y156.765
Y144.767
G02X162.337Y141.504I-3.263
G01X137.663
G02X134.4Y144.767J3.263
G01Y166.618
G02X137.663Y169.881I3.263
G01X162.337
G02X165.6Y166.618J-3.263
G01Y156.765
Y155.765
G03X166.6Y154.765I1.
G01Y155.765
X167.408Y157.765
Z-0.316F30
Y158.765F16
G03X166.408Y157.765J-1.
G01Y156.765
Y144.492
G02X163.064Y141.148I-3.344
G01X136.936
G02X133.592Y144.492J3.344
G01Y166.893
G02X136.936Y170.237I3.344
G01X163.064
G02X166.408Y166.893J-3.344
G01Y156.765
Y155.765
G03X167.408Y154.765I1.
G01Y155.765
X168.182Y157.765
Z-0.88F30
Y158.765F16
G03X167.182Y157.765J-1.
G01Y156.765
Y144.179
G02X163.76Y140.758I-3.421
G01X136.24
G02X132.818Y144.179J3.421
G01Y167.206
G02X136.24Y170.627I3.421
G01X163.76
G02X167.182Y167.206J-3.421
G01Y156.765
Y155.765
G03X168.182Y154.765I1.
G01Y155.765
X168.918Y157.765
Z-1.491F30
Y158.765F16
G03X167.918Y157.765J-1.
G01Y156.765
Y143.829
G02X164.423Y140.334I-3.495
G01X135.577
G02X132.082Y143.829J3.495
G01Y167.556
G02X135.577Y171.051I3.495
G01X164.423
G02X167.918Y167.556J-3.495
G01Y156.765
Y155.765
G03X168.918Y154.765I1.
G01Y155.765
X169.613Y157.765
Z-2.148F30
Y158.765F16
G03X168.613Y157.765J-1.
G01Y156.765
Y143.442
G02X165.049Y139.878I-3.564
G01X134.951
G02X131.387Y143.442J3.564
G01Y167.942
G02X134.951Y171.507I3.564
G01X165.049
G02X168.613Y167.942J-3.564
G01Y156.765
Y155.765
G03X169.613Y154.765I1.
G01Y155.765
X170.266Y157.765
Z-2.849F30
Y158.765F16
G03X169.266Y157.765J-1.
G01Y156.765
Y143.022
G02X165.636Y139.393I-3.63
G01X134.364
G02X130.734Y143.022J3.63
G01Y168.363
G02X134.364Y171.992I3.63
G01X165.636
G02X169.266Y168.363J-3.63
G01Y156.765
Y155.765
G03X170.266Y154.765I1.
G01Y155.765
X170.872Y157.765
Z-3.589F30
Y158.765F16
G03X169.872Y157.765J-1.
G01Y156.765
Y142.57
G02X166.182Y138.879I-3.69
G01X133.818
G02X130.128Y142.57J3.69
G01Y168.815
G02X133.818Y172.506I3.69
G01X166.182
G02X169.872Y168.815J-3.69
G01Y156.765
Y155.765
G03X170.872Y154.765I1.
G01Y155.765
X171.43Y157.765
Z-4.367F30
Y158.765F16
G03X170.43Y157.765J-1.
G01Y156.765
Y142.086
G02X166.684Y138.34I-3.746
G01X133.316
G02X129.57Y142.086J3.746
G01Y169.299
G02X133.316Y173.045I3.746
G01X166.684
G02X170.43Y169.299J-3.746
G01Y156.765
Y155.765
G03X171.43Y154.765I1.
G01Y155.765
X171.937Y157.765
Z-5.178F30
Y158.765F16
G03X170.937Y157.765J-1.
G01Y156.765
Y141.574
G02X167.14Y137.778I-3.797
G01X132.86
G02X129.063Y141.574J3.797
G01Y169.81
G02X132.86Y173.607I3.797
G01X167.14
G02X170.937Y169.81J-3.797
G01Y156.765
Y155.765
G03X171.937Y154.765I1.
G01Y155.765
X172.392Y157.765
Z-6.021F30
Y158.765F16
G03X171.392Y157.765J-1.
G01Y156.765
Y141.036
G02X167.549Y137.194I-3.842
G01X132.451
G02X128.608Y141.036J3.842
G01Y170.349
G02X132.451Y174.191I3.842
G01X167.549
G02X171.392Y170.349J-3.842
G01Y156.765
Y155.765
G03X172.392Y154.765I1.
G01Y155.765
X172.791Y157.765
Z-6.89F30
Y158.765F16
G03X171.791Y157.765J-1.
G01Y156.765
Y140.473
G02X167.909Y136.591I-3.882
G01X132.091
G02X128.209Y140.473J3.882
G01Y170.912
G02X132.091Y174.794I3.882
G01X167.909
G02X171.791Y170.912J-3.882
G01Y156.765
Y155.765
G03X172.791Y154.765I1.
G01Y155.765
X173.135Y157.765
Z-7.783F30
Y158.765F16
G03X172.135Y157.765J-1.
G01Y156.765
Y139.888
G02X168.218Y135.972I-3.916
G01X131.782
G02X127.865Y139.888J3.916
G01Y171.496
G02X131.782Y175.413I3.916
G01X168.218
G02X172.135Y171.496J-3.916
G01Y156.765
Y155.765
G03X173.135Y154.765I1.
G01Y155.765
X173.421Y157.765
Z-8.697F30
Y158.765F16
G03X172.421Y157.765J-1.
G01Y156.765
Y139.284
G02X168.476Y135.339I-3.945
G01X131.524
G02X127.579Y139.284J3.945
G01Y172.101
G02X131.524Y176.046I3.945
G01X168.476
G02X172.421Y172.101J-3.945
G01Y156.765
Y155.765
G03X173.421Y154.765I1.
G01Y155.765
X173.648Y157.765
Z-9.626F30
Y158.765F16
G03X172.648Y157.765J-1.
G01Y156.765
Y138.662
G02X168.68Y134.694I-3.968
G01X131.32
G02X127.352Y138.662J3.968
G01Y172.723
G02X131.32Y176.69I3.968
G01X168.68
G02X172.648Y172.723J-3.968
G01Y156.765
Y155.765
G03X173.648Y154.765I1.
G01Y155.765
X173.815Y157.765
Z-10.569F30
Y158.765F16
G03X172.815Y157.765J-1.
G01Y156.765
Y138.026
G02X168.831Y134.041I-3.984
G01X131.169
G02X127.185Y138.026J3.984
G01Y173.359
G02X131.169Y177.344I3.984
G01X168.831
G02X172.815Y173.359J-3.984
G01Y156.765
Y155.765
G03X173.815Y154.765I1.
G01Y155.765
X173.922Y157.765
Z-11.52F30
Y158.765F16
G03X172.922Y157.765J-1.
G01Y156.765
Y137.377
G02X168.927Y133.382I-3.995
G01X131.073
G02X127.078Y137.377J3.995
G01Y174.008
G02X131.073Y178.003I3.995
G01X168.927
G02X172.922Y174.008J-3.995
G01Y156.765
Y155.765
G03X173.922Y154.765I1.
G01Y155.765
X173.968Y157.765
Z-12.476F30
Y158.765F16
G03X172.968Y157.765J-1.
G01Y156.765
Y136.719
G02X168.969Y132.719I-4.
G01X131.031
G02X127.032Y136.719J4.
G01Y174.666
G02X131.031Y178.666I4.
G01X168.969
G02X172.968Y174.666J-4.
G01Y156.765
Y155.765
G03X173.968Y154.765I1.
G01Y155.765
G00Z50.
X63.5Y163.032
Z3.
G01Z1.5F30
Y164.032F16
G03X62.5Y163.032J-1.
G01Y162.032
Y145.692
G02X60.Y143.192I-2.5
G01X40.
G02X37.5Y145.692J2.5
G01Y165.692
G02X40.Y168.192I2.5
G01X60.
G02X62.5Y165.692J-2.5
G01Y162.032
Y161.032
G03X63.5Y160.032I1.
G01Y161.032
X64.448Y163.032
Z1.386F30
Y164.032F16
G03X63.448Y163.032J-1.
G01Y162.032
Y145.1
G02X60.593Y142.244I-2.856
G01X39.407
G02X36.552Y145.1J2.856
G01Y166.285
G02X39.407Y169.141I2.856
G01X60.593
G02X63.448Y166.285J-2.856
G01Y162.032
Y161.032
G03X64.448Y160.032I1.
G01Y161.032
X65.342Y163.032
Z1.05F30
Y164.032F16
G03X64.342Y163.032J-1.
G01Y162.032
Y144.541
G02X61.152Y141.35I-3.191
G01X38.848
G02X35.658Y144.541J3.191
G01Y166.844
G02X38.848Y170.035I3.191
G01X61.152
G02X64.342Y166.844J-3.191
G01Y162.032
Y161.032
G03X65.342Y160.032I1.
G01Y161.032
X66.132Y163.032
Z0.512F30
Y164.032F16
G03X65.132Y163.032J-1.
G01Y162.032
Y144.048
G02X61.645Y140.561I-3.487
G01X38.355
G02X34.868Y144.048J3.487
G01Y167.337
G02X38.355Y170.824I3.487
G01X61.645
G02X65.132Y167.337J-3.487
G01Y162.032
Y161.032
G03X66.132Y160.032I1.
G01Y161.032
X66.771Y163.032
Z-0.197F30
Y164.032F16
G03X65.771Y163.032J-1.
G01Y162.032
Y143.648
G02X62.044Y139.922I-3.727
G01X37.956
G02X34.229Y143.648J3.727
G01Y167.737
G02X37.956Y171.463I3.727
G01X62.044
G02X65.771Y167.737J-3.727
G01Y162.032
Y161.032
G03X66.771Y160.032I1.
G01Y161.032
X67.223Y163.032
Z-1.038F30
Y164.032F16
G03X66.223Y163.032J-1.
G01Y162.032
Y143.365
G02X62.327Y139.469I-3.896
G01X37.673
G02X33.777Y143.365J3.896
G01Y168.02
G02X37.673Y171.916I3.896
G01X62.327
G02X66.223Y168.02J-3.896
G01Y162.032
Y161.032
G03X67.223Y160.032I1.
G01Y161.032
X67.58Y163.032
Z-1.865F30
Y164.032F16
G03X66.58Y163.032J-1.
G01Y162.032
Y142.968
G02X62.724Y139.112I-3.856
G01X37.276
G02X33.42Y142.968J3.856
G01Y168.416
G02X37.276Y172.273I3.856
G01X62.724
G02X66.58Y168.416J-3.856
G01Y162.032
Y161.032
G03X67.58Y160.032I1.
G01Y161.032
X67.992Y163.032
Z-2.666F30
Y164.032F16
G03X66.992Y163.032J-1.
G01Y162.032
Y142.511
G02X63.182Y138.7I-3.811
G01X36.818
G02X33.008Y142.511J3.811
G01Y168.874
G02X36.818Y172.684I3.811
G01X63.182
G02X66.992Y168.874J-3.811
G01Y162.032
Y161.032
G03X67.992Y160.032I1.
G01Y161.032
X68.456Y163.032
Z-3.438F30
Y164.032F16
G03X67.456Y163.032J-1.
G01Y162.032
Y141.995
G02X63.698Y138.236I-3.759
G01X36.302
G02X32.544Y141.995J3.759
G01Y169.39
G02X36.302Y173.149I3.759
G01X63.698
G02X67.456Y169.39J-3.759
G01Y162.032
Y161.032
G03X68.456Y160.032I1.
G01Y161.032
X68.971Y163.032
Z-4.177F30
Y164.032F16
G03X67.971Y163.032J-1.
G01Y162.032
Y141.422
G02X64.27Y137.721I-3.701
G01X35.73
G02X32.029Y141.422J3.701
G01Y169.962
G02X35.73Y173.664I3.701
G01X64.27
G02X67.971Y169.962J-3.701
G01Y162.032
Y161.032
G03X68.971Y160.032I1.
G01Y161.032
X69.535Y163.032
Z-4.88F30
Y164.032F16
G03X68.535Y163.032J-1.
G01Y162.032
Y140.796
G02X64.896Y137.158I-3.638
G01X35.104
G02X31.465Y140.796J3.638
G01Y170.589
G02X35.104Y174.227I3.638
G01X64.896
G02X68.535Y170.589J-3.638
G01Y162.032
Y161.032
G03X69.535Y160.032I1.
G01Y161.032
X70.144Y163.032
Z-5.544F30
Y164.032F16
G03X69.144Y163.032J-1.
G01Y162.032
Y140.119
G02X65.573Y136.549I-3.571
G01X34.427
G02X30.856Y140.119J3.571
G01Y171.266
G02X34.427Y174.836I3.571
G01X65.573
G02X69.144Y171.266J-3.571
G01Y162.032
Y161.032
G03X70.144Y160.032I1.
G01Y161.032
X70.791Y163.032
Z-6.247F30
Y164.032F16
G03X69.791Y163.032J-1.
G01Y162.032
Y139.536
G02X66.156Y135.901I-3.635
G01X33.844
G02X30.209Y139.536J3.635
G01Y171.849
G02X33.844Y175.484I3.635
G01X66.156
G02X69.791Y171.849J-3.635
G01Y162.032
Y161.032
G03X70.791Y160.032I1.
G01Y161.032
X71.393Y163.032
Z-6.99F30
Y164.032F16
G03X70.393Y163.032J-1.
G01Y162.032
Y138.995
G02X66.698Y135.3I-3.695
G01X33.302
G02X29.607Y138.995J3.695
G01Y172.39
G02X33.302Y176.085I3.695
G01X66.698
G02X70.393Y172.39J-3.695
G01Y162.032
Y161.032
G03X71.393Y160.032I1.
G01Y161.032
X71.946Y163.032
Z-7.769F30
Y164.032F16
G03X70.946Y163.032J-1.
G01Y162.032
Y138.497
G02X67.196Y134.746I-3.75
G01X32.804
G02X29.054Y138.497J3.75
G01Y172.888
G02X32.804Y176.639I3.75
G01X67.196
G02X70.946Y172.888J-3.75
G01Y162.032
Y161.032
G03X71.946Y160.032I1.
G01Y161.032
X72.449Y163.032
Z-8.583F30
Y164.032F16
G03X71.449Y163.032J-1.
G01Y162.032
Y138.044
G02X67.648Y134.244I-3.8
G01X32.352
G02X28.551Y138.044J3.8
G01Y173.341
G02X32.352Y177.141I3.8
G01X67.648
G02X71.449Y173.341J-3.8
G01Y162.032
Y161.032
G03X72.449Y160.032I1.
G01Y161.032
X72.899Y163.032
Z-9.426F30
Y164.032F16
G03X71.899Y163.032J-1.
G01Y162.032
Y137.639
G02X68.053Y133.794I-3.845
G01X31.947
G02X28.101Y137.639J3.845
G01Y173.746
G02X31.947Y177.591I3.845
G01X68.053
G02X71.899Y173.746J-3.845
G01Y162.032
Y161.032
G03X72.899Y160.032I1.
G01Y161.032
X73.294Y163.032
Z-10.296F30
Y164.032F16
G03X72.294Y163.032J-1.
G01Y162.032
Y137.283
G02X68.409Y133.398I-3.885
G01X31.591
G02X27.706Y137.283J3.885
G01Y174.102
G02X31.591Y177.986I3.885
G01X68.409
G02X72.294Y174.102J-3.885
G01Y162.032
Y161.032
G03X73.294Y160.032I1.
G01Y161.032
X73.633Y163.032
Z-11.19F30
Y164.032F16
G03X72.633Y163.032J-1.
G01Y162.032
Y136.978
G02X68.715Y133.059I-3.919
G01X31.285
G02X27.367Y136.978J3.919
G01Y174.407
G02X31.285Y178.326I3.919
G01X68.715
G02X72.633Y174.407J-3.919
G01Y162.032
Y161.032
G03X73.633Y160.032I1.
G01Y161.032
X73.915Y163.032
Z-12.103F30
Y164.032F16
G03X72.915Y163.032J-1.
G01Y162.032
Y136.724
G02X68.969Y132.777I-3.947
G01X31.031
G02X27.085Y136.724J3.947
G01Y174.661
G02X31.031Y178.608I3.947
G01X68.969
G02X72.915Y174.661J-3.947
G01Y162.032
Y161.032
G03X73.915Y160.032I1.
G01Y161.032
G00Z50.
X52.16Y57.744
Z3.
G01Z1.5F30
X52.39Y56.771F16
G02X51.187Y57.513I-0.231J0.973
G01X50.956Y58.486
G03X49.044Y58.033I-0.956J-0.227
X50.956Y58.486I0.956J0.227
X50.681Y59.526I-20.772J-4.927
G02X51.362Y60.766I0.96J0.28
G01X51.641Y59.806
X53.114Y57.97
Z1.48F30
X53.345Y56.997F16
G02X52.141Y57.739I-0.231J0.973
G01X51.91Y58.712
G03X48.09Y57.806I-1.91J-0.453
X51.91Y58.712I1.91J0.453
X51.636Y59.753I-20.772J-4.927
G02X52.316Y60.992I0.96J0.28
G01X52.596Y60.032
X54.065Y58.196
Z1.419F30
X54.296Y57.223F16
G02X53.092Y57.965I-0.231J0.973
G01X52.861Y58.938
G03X47.139Y57.581I-2.861J-0.679
X52.861Y58.938I2.861J0.679
X52.587Y59.978I-20.772J-4.927
G02X53.267Y61.218I0.96J0.28
G01X53.547Y60.258
X55.011Y58.42
Z1.317F30
X55.242Y57.447F16
G02X54.038Y58.189I-0.231J0.973
G01X53.807Y59.162
G03X46.193Y57.356I-3.807J-0.903
X53.807Y59.162I3.807J0.903
X53.533Y60.203I-20.772J-4.927
G02X54.213Y61.442I0.96J0.28
G01X54.493Y60.482
X55.951Y58.643
Z1.175F30
X56.182Y57.67F16
G02X54.978Y58.412I-0.231J0.973
G01X54.747Y59.385
G03X45.253Y57.133I-4.747J-1.126
X54.747Y59.385I4.747J1.126
X54.472Y60.425I-20.772J-4.927
G02X55.153Y61.665I0.96J0.28
G01X55.432Y60.705
X56.882Y58.864
Z0.994F30
X57.113Y57.891F16
G02X55.909Y58.633I-0.231J0.973
G01X55.678Y59.606
G03X44.322Y56.912I-5.678J-1.347
X55.678Y59.606I5.678J1.347
X55.404Y60.646I-20.772J-4.927
G02X56.084Y61.886I0.96J0.28
G01X56.364Y60.926
X57.804Y59.082
Z0.772F30
X58.035Y58.109F16
G02X56.831Y58.852I-0.231J0.973
G01X56.6Y59.825
G03X43.4Y56.694I-6.6J-1.565
X56.6Y59.825I6.6J1.565
X56.326Y60.865I-20.772J-4.927
G02X57.006Y62.105I0.96J0.28
G01X57.286Y61.145
X58.714Y59.298
Z0.511F30
X58.945Y58.325F16
G02X57.741Y59.068I-0.231J0.973
G01X57.511Y60.041
G03X42.489Y56.478I-7.511J-1.781
X57.511Y60.041I7.511J1.781
X57.236Y61.081I-20.772J-4.927
G02X57.917Y62.321I0.96J0.28
G01X58.196Y61.36
X59.612Y59.511
Z0.211F30
X59.843Y58.538F16
G02X58.639Y59.281I-0.231J0.973
G01X58.408Y60.254
G03X41.592Y56.265I-8.408J-1.994
X58.408Y60.254I8.408J1.994
X58.134Y61.294I-20.772J-4.927
G02X58.814Y62.533I0.96J0.28
G01X59.094Y61.573
X60.495Y59.721
Z-0.128F30
X60.726Y58.748F16
G02X59.522Y59.49I-0.231J0.973
G01X59.291Y60.463
G03X40.709Y56.055I-9.291J-2.204
X59.291Y60.463I9.291J2.204
X59.017Y61.503I-20.772J-4.927
G02X59.697Y62.743I0.96J0.28
G01X59.977Y61.783
X61.362Y59.927
Z-0.504F30
X61.593Y58.954F16
G02X60.389Y59.696I-0.231J0.973
G01X60.159Y60.669
G03X39.841Y55.85I-10.159J-2.409
X60.159Y60.669I10.159J2.409
X59.884Y61.709I-20.772J-4.927
G02X60.565Y62.949I0.96J0.28
G01X60.844Y61.989
X62.212Y60.128
Z-0.918F30
X62.443Y59.155F16
G02X61.239Y59.897I-0.231J0.973
G01X61.009Y60.87
G03X38.991Y55.648I-11.009J-2.611
X61.009Y60.87I11.009J2.611
X60.734Y61.911I-20.772J-4.927
G02X61.415Y63.15I0.96J0.28
G01X61.694Y62.19
X63.043Y60.325
Z-1.368F30
X63.274Y59.352F16
G02X62.07Y60.094I-0.231J0.973
G01X61.84Y61.067
G03X38.16Y55.451I-11.84J-2.808
X61.84Y61.067I11.84J2.808
X61.565Y62.108I-20.772J-4.927
G02X62.246Y63.347I0.96J0.28
G01X62.525Y62.387
X63.854Y60.518
Z-1.854F30
X64.085Y59.545F16
G02X62.881Y60.287I-0.231J0.973
G01X62.65Y61.26
G03X37.35Y55.259I-12.65J-3.
X62.65Y61.26I12.65J3.
X62.376Y62.3I-20.772J-4.927
G02X63.056Y63.54I0.96J0.28
G01X63.336Y62.58
X64.643Y60.705
Z-2.375F30
X64.874Y59.732F16
G02X63.67Y60.474I-0.231J0.973
G01X63.44Y61.447
G03X36.56Y55.072I-13.44J-3.188
X63.44Y61.447I13.44J3.188
X63.165Y62.487I-20.772J-4.927
G02X63.846Y63.727I0.96J0.28
G01X64.125Y62.767
X65.41Y60.886
Z-2.93F30
X65.64Y59.913F16
G02X64.437Y60.656I-0.231J0.973
G01X64.206Y61.629
G03X35.794Y54.89I-14.206J-3.369
X64.206Y61.629I14.206J3.369
X63.931Y62.669I-20.772J-4.927
G02X64.612Y63.909I0.96J0.28
G01X64.891Y62.948
X66.151Y61.062
Z-3.517F30
X66.382Y60.089F16
G02X65.178Y60.832I-0.231J0.973
G01X64.948Y61.805
G03X35.052Y54.714I-14.948J-3.545
X64.948Y61.805I14.948J3.545
X64.673Y62.845I-20.772J-4.927
G02X65.354Y64.085I0.96J0.28
G01X65.633Y63.124
X66.868Y61.232
Z-4.137F30
X67.098Y60.259F16
G02X65.895Y61.001I-0.231J0.973
G01X65.664Y61.974
G03X34.336Y54.544I-15.664J-3.715
X65.664Y61.974I15.664J3.715
X65.389Y63.015I-20.772J-4.927
G02X66.07Y64.254I0.96J0.28
G01X66.349Y63.294
X67.557Y61.396
Z-4.788F30
X67.788Y60.423F16
G02X66.584Y61.165I-0.231J0.973
G01X66.353Y62.138
G03X33.647Y54.381I-16.353J-3.879
X66.353Y62.138I16.353J3.879
X66.079Y63.178I-20.772J-4.927
G02X66.759Y64.418I0.96J0.28
G01X67.039Y63.458
X68.218Y61.553
Z-5.469F30
X68.449Y60.58F16
G02X67.245Y61.322I-0.231J0.973
G01X67.015Y62.295
G03X32.985Y54.224I-17.015J-4.036
X67.015Y62.295I17.015J4.036
X66.74Y63.335I-20.772J-4.927
G02X67.421Y64.575I0.96J0.28
G01X67.7Y63.615
X68.851Y61.703
Z-6.179F30
X69.081Y60.73F16
G02X67.878Y61.472I-0.231J0.973
G01X67.647Y62.445
G03X32.353Y54.074I-17.647J-4.186
X67.647Y62.445I17.647J4.186
X67.372Y63.485I-20.772J-4.927
G02X68.053Y64.725I0.96J0.28
G01X68.332Y63.765
X69.453Y61.845
Z-6.916F30
X69.684Y60.872F16
G02X68.48Y61.615I-0.231J0.973
G01X68.249Y62.588
G03X31.751Y53.931I-18.249J-4.328
X68.249Y62.588I18.249J4.328
X67.974Y63.628I-20.772J-4.927
G02X68.655Y64.868I0.96J0.28
G01X68.934Y63.907
X70.024Y61.981
Z-7.679F30
X70.254Y61.008F16
G02X69.051Y61.75I-0.231J0.973
G01X68.82Y62.723
G03X31.18Y53.796I-18.82J-4.464
X68.82Y62.723I18.82J4.464
X68.545Y63.763I-20.772J-4.927
G02X69.226Y65.003I0.96J0.28
G01X69.505Y64.043
X70.562Y62.109
Z-8.468F30
X70.793Y61.136F16
G02X69.589Y61.878I-0.231J0.973
G01X69.358Y62.851
G03X30.642Y53.668I-19.358J-4.591
X69.358Y62.851I19.358J4.591
X69.084Y63.891I-20.772J-4.927
G02X69.764Y65.131I0.96J0.28
G01X70.044Y64.171
X71.068Y62.228
Z-9.28F30
X71.298Y61.255F16
G02X70.095Y61.998I-0.231J0.973
G01X69.864Y62.971
G03X30.136Y53.548I-19.864J-4.711
X69.864Y62.971I19.864J4.711
X69.589Y64.011I-20.772J-4.927
G02X70.27Y65.251I0.96J0.28
G01X70.549Y64.29
X71.539Y62.34
Z-10.114F30
X71.77Y61.367F16
G02X70.566Y62.109I-0.231J0.973
G01X70.335Y63.082
G03X29.665Y53.436I-20.335J-4.823
X70.335Y63.082I20.335J4.823
X70.061Y64.123I-20.772J-4.927
G02X70.741Y65.362I0.96J0.28
G01X71.021Y64.402
X71.976Y62.444
Z-10.969F30
X72.207Y61.471F16
G02X71.003Y62.213I-0.231J0.973
G01X70.772Y63.186
G03X29.228Y53.332I-20.772J-4.927
X70.772Y63.186I20.772J4.927
X70.497Y64.226I-20.772J-4.927
G02X71.178Y65.466I0.96J0.28
G01X71.458Y64.506
G00Z50.
X126.572Y71.759
Z3.
G01Z1.5F30
Y72.759F16
G03X125.572Y71.759J-1.
G01Y70.759
Y45.759
Y44.759
G03X126.572Y43.759I1.
G01Y44.759
X127.144
Y43.759F16
G02X126.144Y44.759J1.
G01Y45.759
Y70.759
Y71.759
G02X127.144Y72.759I1.
G01Y71.759
X127.716
Y72.759F16
G03X126.716Y71.759J-1.
G01Y70.759
Y45.759
Y44.759
G03X127.716Y43.759I1.
G01Y44.759
X128.513
Z1.451F30
Y43.759F16
G02X127.513Y44.759J1.
G01Y45.759
Y70.759
Y71.759
G02X128.513Y72.759I1.
G01Y71.759
X129.299
Z1.304F30
Y72.759F16
G03X128.299Y71.759J-1.
G01Y70.759
Y45.759
Y44.759
G03X129.299Y43.759I1.
G01Y44.759
X130.06
Z1.063F30
Y43.759F16
G02X129.06Y44.759J1.
G01Y45.759
Y70.759
Y71.759
G02X130.06Y72.759I1.
G01Y71.759
X130.786
Z0.729F30
Y72.759F16
G03X129.786Y71.759J-1.
G01Y70.759
Y45.759
Y44.759
G03X130.786Y43.759I1.
G01Y44.759
X131.632
Z0.276F30
Y43.759F16
G02X130.632Y44.759J1.
G01Y45.759
Y70.759
Y71.759
G02X131.632Y72.759I1.
G01Y71.759
X132.478
Z-0.177F30
Y72.759F16
G03X131.478Y71.759J-1.
G01Y70.759
Y45.759
Y44.759
G03X132.478Y43.759I1.
G01Y44.759
X133.324
Z-0.63F30
Y43.759F16
G02X132.324Y44.759J1.
G01Y45.759
Y70.759
Y71.759
G02X133.324Y72.759I1.
G01Y71.759
X134.17
Z-1.084F30
Y72.759F16
G03X133.17Y71.759J-1.
G01Y70.759
Y45.759
Y44.759
G03X134.17Y43.759I1.
G01Y44.759
X135.016
Z-1.537F30
Y43.759F16
G02X134.016Y44.759J1.
G01Y45.759
Y70.759
Y71.759
G02X135.016Y72.759I1.
G01Y71.759
X135.861
Z-1.99F30
Y72.759F16
G03X134.861Y71.759J-1.
G01Y70.759
Y45.759
Y44.759
G03X135.861Y43.759I1.
G01Y44.759
X136.707
Z-2.444F30
Y43.759F16
G02X135.707Y44.759J1.
G01Y45.759
Y70.759
Y71.759
G02X136.707Y72.759I1.
G01Y71.759
X137.553
Z-2.897F30
Y72.759F16
G03X136.553Y71.759J-1.
G01Y70.759
Y45.759
Y44.759
G03X137.553Y43.759I1.
G01Y44.759
X138.399
Z-3.35F30
Y43.759F16
G02X137.399Y44.759J1.
G01Y45.759
Y70.759
Y71.759
G02X138.399Y72.759I1.
G01Y71.759
X139.245
Z-3.803F30
Y72.759F16
G03X138.245Y71.759J-1.
G01Y70.759
Y45.759
Y44.759
G03X139.245Y43.759I1.
G01Y44.759
X140.091
Z-4.257F30
Y43.759F16
G02X139.091Y44.759J1.
G01Y45.759
Y70.759
Y71.759
G02X140.091Y72.759I1.
G01Y71.759
X140.937
Z-4.71F30
Y72.759F16
G03X139.937Y71.759J-1.
G01Y70.759
Y45.759
Y44.759
G03X140.937Y43.759I1.
G01Y44.759
X141.783
Z-5.163F30
Y43.759F16
G02X140.783Y44.759J1.
G01Y45.759
Y70.759
Y71.759
G02X141.783Y72.759I1.
G01Y71.759
X142.629
Z-5.616F30
Y72.759F16
G03X141.629Y71.759J-1.
G01Y70.759
Y45.759
Y44.759
G03X142.629Y43.759I1.
G01Y44.759
X143.475
Z-6.07F30
Y43.759F16
G02X142.475Y44.759J1.
G01Y45.759
Y70.759
Y71.759
G02X143.475Y72.759I1.
G01Y71.759
X144.321
Z-6.523F30
Y72.759F16
G03X143.321Y71.759J-1.
G01Y70.759
Y45.759
Y44.759
G03X144.321Y43.759I1.
G01Y44.759
X145.167
Z-6.976F30
Y43.759F16
G02X144.167Y44.759J1.
G01Y45.759
Y70.759
Y71.759
G02X145.167Y72.759I1.
G01Y71.759
X146.013
Z-7.429F30
Y72.759F16
G03X145.013Y71.759J-1.
G01Y70.759
Y45.759
Y44.759
G03X146.013Y43.759I1.
G01Y44.759
X146.858
Z-7.883F30
Y43.759F16
G02X145.858Y44.759J1.
G01Y45.759
Y70.759
Y71.759
G02X146.858Y72.759I1.
G01Y71.759
X147.704
Z-8.336F30
Y72.759F16
G03X146.704Y71.759J-1.
G01Y70.759
Y45.759
Y44.759
G03X147.704Y43.759I1.
G01Y44.759
X148.55
Z-8.789F30
Y43.759F16
G02X147.55Y44.759J1.
G01Y45.759
Y70.759
Y71.759
G02X148.55Y72.759I1.
G01Y71.759
X149.396
Z-9.243F30
Y72.759F16
G03X148.396Y71.759J-1.
G01Y70.759
Y45.759
Y44.759
G03X149.396Y43.759I1.
G01Y44.759
X150.242
Z-9.696F30
Y43.759F16
G02X149.242Y44.759J1.
G01Y45.759
Y70.759
Y71.759
G02X150.242Y72.759I1.
G01Y71.759
X151.054
Z-10.089F30
Y72.759F16
G03X150.054Y71.759J-1.
G01Y70.759
Y45.759
Y44.759
G03X151.054Y43.759I1.
G01Y44.759
X151.895
Z-10.414F30
Y43.759F16
G02X150.895Y44.759J1.
G01Y45.759
Y70.759
Y71.759
G02X151.895Y72.759I1.
G01Y71.759
X152.759
Z-10.669F30
Y72.759F16
G03X151.759Y71.759J-1.
G01Y70.759
Y45.759
Y44.759
G03X152.759Y43.759I1.
G01Y44.759
X153.642
Z-10.852F30
Y43.759F16
G02X152.642Y44.759J1.
G01Y45.759
Y70.759
Y71.759
G02X153.642Y72.759I1.
G01Y71.759
X154.537
Z-10.963F30
Y72.759F16
G03X153.537Y71.759J-1.
G01Y70.759
Y45.759
Y44.759
G03X154.537Y43.759I1.
G01Y44.759
X155.437
Z-11.F30
Y43.759F16
G02X154.437Y44.759J1.
G01Y45.759
Y70.759
Y71.759
G02X155.437Y72.759I1.
G01Y71.759
G00Z50.
G18X246.838Y61.509
Z3.
G01Z-12.5F30
X245.838F16
G02X217.896I-13.971
G01X216.896
X216.704
Y62.471
X217.704
G03X246.03I14.163
G01X247.03
X247.222
Y63.432
X246.222
G02X217.511I-14.355
G01X216.511
X216.319
Y64.394
X217.319
G03X246.415I14.548
G01X247.415
X247.607
Y65.355
X246.607
G02X217.127I-14.74
G01X216.127
X215.934
Y66.317
X216.934
G03X246.799I14.932
G01X247.799
X247.992
Y67.278
X246.992
G02X216.742I-15.125
G01X215.742
X215.55
Y68.24
X216.55
G03X247.184I15.317
G01X248.184
X248.376
Y69.202
X247.376
G02X216.357I-15.509
G01X215.357
X215.165
Y70.163
X216.165
G03X247.568I15.702
G01X248.568
X248.761
Y71.125
X247.761
G02X215.973I-15.894
G01X214.973
X214.781
Y72.086
X215.781
G03X247.953I16.086
G01X248.953
X249.145
Y73.048
X248.145
G02X215.588I-16.279
G01X214.588
X214.396
Y74.009
X215.396
G03X248.338I16.471
G01X249.338
G00Z50.
G19X352.678Y52.58
Z3.
G01Z-18.75F30
Y53.58F16
Z-13.5
G02Y60.828Z-6.252J7.248
G01Y64.332
G02Y71.58Z-13.5K-7.248
G01Z-18.75
Y72.58
X353.451
Y71.58
Z-12.881
G03Y64.435Z-5.736J-7.145
G01Y60.725
G03Y53.58Z-12.881K-7.145
G01Z-18.75
Y52.58
X354.225
Y53.58
Z-12.262
G02Y60.622Z-5.221J7.042
G01Y64.538
G02Y71.58Z-12.262K-7.042
G01Z-18.75
Y72.58
X354.998
Y71.58
Z-11.644
G03Y64.641Z-4.705J-6.939
G01Y60.519
G03Y53.58Z-11.644K-6.939
G01Z-18.75
Y52.58
X355.772
Y53.58
Z-11.025
G02Y60.415Z-4.189J6.836
G01Y64.744
G02Y71.58Z-11.025K-6.836
G01Z-18.75
Y72.58
X356.632
Y71.58
Z-10.484
G03Y64.859Z-3.763J-6.721
G01Y60.301
G03Y53.58Z-10.484K-6.721
G01Z-18.75
Y52.58
X357.573
Y53.58
Z-10.165
G02Y60.175Z-3.57J6.595
G01Y64.984
G02Y71.58Z-10.165K-6.595
G01Z-18.75
Y72.58
X358.532
Y71.58
Z-10.089
G03Y65.112Z-3.622J-6.467
G01Y60.047
G03Y53.58Z-10.089K-6.467
G01Z-18.75
Y52.58
X359.447
Y53.58
Z-10.261
G02Y59.925Z-3.916J6.346
G01Y65.234
G02Y71.58Z-10.261K-6.346
G01Z-18.75
Y72.58
X360.322
Y71.58
Z-10.504
G03Y65.351Z-4.276J-6.229
G01Y59.809
G03Y53.58Z-10.504K-6.229
G01Z-18.75
Y52.58
X361.228
Y53.58
Z-10.656
G02Y59.688Z-4.548J6.108
G01Y65.472
G02Y71.58Z-10.656K-6.108
G01Z-18.75
Y72.58
X362.156
Y71.58
Z-10.715
G03Y65.596Z-4.731J-5.984
G01Y59.564
G03Y53.58Z-10.715K-5.984
G01Z-18.75
Y52.58
X363.098
Y53.58
Z-10.681
G02Y59.438Z-4.822J5.859
G01Y65.721
G02Y71.58Z-10.681K-5.859
G01Z-18.75
Y72.58
X364.045
Y71.58
Z-10.553
G03Y65.847Z-4.82J-5.732
G01Y59.312
G03Y53.58Z-10.553K-5.732
G01Z-18.75
Y52.58
X364.986
Y53.58
Z-10.333
G02Y59.187Z-4.726J5.607
G01Y65.973
G02Y71.58Z-10.333K-5.607
G01Z-18.75
Y72.58
X365.914
Y71.58
Z-10.023
G03Y66.097Z-4.54J-5.483
G01Y59.063
G03Y53.58Z-10.023K-5.483
G01Z-18.75
Y52.58
X366.82
Y53.58
Z-9.627
G02Y58.942Z-4.264J5.362
G01Y66.217
G02Y71.58Z-9.627K-5.362
G01Z-18.75
Y72.58
X367.693
Y71.58
Z-9.147
G03Y66.334Z-3.901J-5.246
G01Y58.826
G03Y53.58Z-9.147K-5.246
G01Z-18.75
Y52.58
X368.528
Y53.58
Z-8.589
G02Y58.715Z-3.454J5.135
G01Y66.445
G02Y71.58Z-8.589K-5.135
G01Z-18.75
Y72.58
X369.314
Y71.58
Z-7.958
G03Y66.55Z-2.928J-5.03
G01Y58.61
G03Y53.58Z-7.958K-5.03
G01Z-18.75
Y52.58
X370.045
Y53.58
Z-7.26
G02Y58.512Z-2.327J4.932
G01Y66.647
G02Y71.58Z-7.26K-4.932
G01Z-18.75
Y72.58
X370.714
Y71.58
Z-6.501
G03Y66.737Z-1.658J-4.843
G01Y58.423
G03Y53.58Z-6.501K-4.843
G01Z-18.75
Y52.58
X371.314
Y53.58
Z-5.69
G02Y58.343Z-0.926J4.763
G01Y66.817
G02Y71.58Z-5.69K-4.763
G01Z-18.75
Y72.58
X371.926
Y71.58
Z-4.905
G03Y66.898Z-0.223J-4.682
G01Y58.261
G03Y53.58Z-4.905K-4.682
G01Z-18.75
Y52.58
X372.639
Y53.58
Z-4.21
G02Y58.166Z0.377J4.587
G01Y66.993
G02Y71.58Z-4.21K-4.587
G01Z-18.75
Y72.58
X373.436
Y71.58
Z-3.621
G03Y67.1Z0.859J-4.48
G01Y58.06
G03Y53.58Z-3.621K-4.48
G01Z-18.75
Y52.58
X374.298
Y53.58
Z-3.153
G02Y57.945Z1.212J4.365
G01Y67.215
G02Y71.58Z-3.153K-4.365
G01Z-18.75
Y72.58
X375.205
Y71.58
Z-2.817
G03Y67.335Z1.428J-4.244
G01Y57.824
G03Y53.58Z-2.817K-4.244
G01Z-18.75
Y52.58
X376.134
Y53.58
Z-2.621
G02Y57.7Z1.5J4.121
G01Y67.459
G02Y71.58Z-2.621K-4.121
G01Z-18.75
Y72.58
X377.126
Y71.58
Z-2.488
G03Y67.592Z1.5J-3.988
G01Y57.568
G03Y53.58Z-2.488K-3.988
G01Z-18.75
Y52.58
X378.117
Y53.58
Z-2.356
G02Y57.436Z1.5J3.856
G01Y67.724
G02Y71.58Z-2.356K-3.856
G01Z-18.75
Y72.58
X379.109
Y71.58
Z-2.224
G03Y67.856Z1.5J-3.724
G01Y57.304
G03Y53.58Z-2.224K-3.724
G01Z-18.75
Y52.58
X380.101
Y53.58
Z-2.092
G02Y57.171Z1.5J3.592
G01Y67.988
G02Y71.58Z-2.092K-3.592
G01Z-18.75
Y72.58
X381.093
Y71.58
Z-1.959
G03Y68.12Z1.5J-3.459
G01Y57.039
G03Y53.58Z-1.959K-3.459
G01Z-18.75
Y52.58
X382.084
Y53.58
Z-1.827
G02Y56.907Z1.5J3.327
G01Y68.253
G02Y71.58Z-1.827K-3.327
G01Z-18.75
Y72.58
X383.076
Y71.58
Z-1.695
G03Y68.385Z1.5J-3.195
G01Y56.775
G03Y53.58Z-1.695K-3.195
G01Z-18.75
Y52.58
X384.068
Y53.58
Z-1.563
G02Y56.643Z1.5J3.063
G01Y68.517
G02Y71.58Z-1.563K-3.063
G01Z-18.75
Y72.58
X385.059
Y71.58
Z-1.431
G03Y68.649Z1.5J-2.931
G01Y56.51
G03Y53.58Z-1.431K-2.931
G01Z-18.75
Y52.58
X386.051
Y53.58
Z-1.298
G02Y56.378Z1.5J2.798
G01Y68.782
G02Y71.58Z-1.298K-2.798
G01Z-18.75
Y72.58
X387.043
Y71.58
Z-1.166
G03Y68.914Z1.5J-2.666
G01Y56.246
G03Y53.58Z-1.166K-2.666
G01Z-18.75
Y52.58
X388.035
Y53.58
Z-1.034
G02Y56.114Z1.5J2.534
G01Y69.046
G02Y71.58Z-1.034K-2.534
G01Z-18.75
Y72.58
X389.026
Y71.58
Z-0.902
G03Y69.178Z1.5J-2.402
G01Y55.981
G03Y53.58Z-0.902K-2.402
G01Z-18.75
Y52.58
X390.018
Y53.58
Z-0.769
G02Y55.849Z1.5J2.269
G01Y69.31
G02Y71.58Z-0.769K-2.269
G01Z-18.75
Y72.58
X391.01
Y71.58
Z-0.637
G03Y69.443Z1.5J-2.137
G01Y55.717
G03Y53.58Z-0.637K-2.137
G01Z-18.75
Y52.58
G00Z50.
G17
G49G91G28Z0M09
M05
M30
%
