(LATHE=FANUC)
(T=0101 NR=0.0 NP=7 NAME=LATHE_DRILL)
(T=0202 NR=0.5 NP=3 NAME=LATHE_BIT2)
(T=0303 NR=0.6 NP=3 NAME=LATHE_BIT1)
(T=0404 NR=0.8 NP=2 NAME=LATHE_BIT3)
(T=0505 NR=0.0 NP=3 NAME=LATHE_MIZO)
(T=0606 NR=0.5 NP=8 NAME=LATHE_NEJI)
(T=0707 NR=0.5 NP=3 NAME=LATHE_BIT2)
O0001
N1M25
G00X200.Z150.
G50S2000
T0101M16
G97S300M03
G00X0Z2.
G01Z-6.F0.35
Z-5.
G01Z-14.
Z-13.
G01Z-22.
Z-21.
G01Z-30.
Z-29.
G01Z-38.
Z-37.
G01Z-46.
Z-45.
G01Z-54.
Z-53.
G01Z-62.
Z-61.
G01Z-70.
Z-69.
G01Z-78.
Z-77.
G01Z-86.
Z-85.
G01Z-94.
Z-93.
G01Z-102.
Z-105.774
G00Z2.
G00X200.Z150.T0M09
M01
 
N2M25
G00X200.Z150.
G50S2000
T0202M16
G96S100M03
Z-47.323
X145.
X139.
G01Z-179.8F0.35
X143.4
G00X149.4
Z-43.567
X133.
G01Z-157.565
G03X135.4Z-162.561I-9.8K-4.996
G01Z-179.8
X139.
G00X145.
Z-41.031
X127.
G01Z-153.804
X128.956Z-154.782
G03X133.Z-157.565I-7.778K-7.778
G00X139.
Z-38.674
X121.
G01Z-150.804
X127.Z-153.804
G00X133.
Z-36.317
X115.
G01Z-52.902
G03X120.4Z-59.33I-6.3K-6.427
G01Z-150.504
X121.Z-150.804
G00X127.
Z-33.96
X109.
G01Z-50.477
X113.52Z-52.252
G03X115.Z-52.902I-5.56K-7.077
G00X121.
Z-31.603
X103.
G01Z-48.12
X109.Z-50.477
G00X115.
Z-29.246
X97.
G01Z-45.763
X103.Z-48.12
G00X109.
Z-26.889
X91.
G01Z-43.406
X97.Z-45.763
G00X103.
Z-24.532
X85.
G01Z-41.049
X91.Z-43.406
G00X97.
Z-22.087
X79.
G01Z-38.692
X85.Z-41.049
G00X91.
Z-17.884
X73.
G01Z-36.335
X79.Z-38.692
G00X85.
Z5.264
X67.
G01Z-34.814
G03X71.267Z-35.655I-0.338K-3.986
G01X73.Z-36.335
G00X79.
Z7.906
X61.
G01Z-34.8
X66.325
G03X67.Z-34.814I0K-4.
G00X73.
Z8.906
X55.
G01Z-0.686
X60.4Z-3.386
Z-34.8
X61.
G00X67.
Z9.
X49.
G01Z0.2
X53.228
X55.Z-0.686
G00X61.
Z9.
X43.
G01Z0.2
X49.
G00X55.
Z9.
X37.
G01Z0.2
X43.
G00X49.
Z9.
X31.
G01Z0.2
X37.
G00X43.
Z9.
X25.
G01Z0.2
X31.
G00X37.
Z9.
X19.
G01Z0.2
X25.
G00X31.
Z9.
X18.4
G01Z0.2
X19.
G00X25.
X148.
Z9.
G00X200.
Z150.T0M09
M01
 
N3M25
G00X200.Z150.
G50S2000
T0303M16
G96S100M03
Z-90.308
X126.239
G01X120.239F0.35
X115.239Z-94.638
Z-147.689
X120.049Z-150.094
G00X126.049
Z-94.638
X121.239
G01X115.239
X110.239Z-98.968
Z-145.189
X115.239Z-147.689
G00X121.239
Z-98.968
X116.239
G01X110.239
X109.579Z-99.54
G02X108.4Z-101.74I3.811K-2.2
G01Z-110.4
G03X106.899Z-113.2I-5.6K0
G01X105.239Z-114.638
Z-142.689
X110.239Z-145.189
G00X116.239
Z-114.638
X111.239
G01X105.239
X100.239Z-118.968
Z-140.139
G02X100.977Z-140.559I3.48K2.692
G01X105.239Z-142.689
G00X111.239
Z-118.968
X106.239
G01X100.239
X99.579Z-119.54
G02X98.4Z-121.74I3.811K-2.2
G01Z-137.447
G02X100.239Z-140.139I4.4K0
G00X106.239
G40X126.239
G00X200.
Z150.T0M09
M01
 
N4M25
G00X200.Z150.
G50S2000
T0404M16
G96S100M03
X12.Z5.
X22.01Z4.
G01Z-38.7F0.35
X19.61Z-50.7
G00X13.61
Z4.
X26.01
G01Z-18.7
X22.01Z-38.7
G00X16.01
Z4.
X30.01
G01Z-1.312
G02X29.25Z-2.501I2.605K-1.488
G01X26.01Z-18.7
G00X20.01
Z4.
X34.01
G01Z0.138
G02X30.01Z-1.312I0.605K-2.938
G00X24.01
Z4.
X35.22
G01Z0.2
G02X34.01Z0.138I0K-3.
G00X28.01
X15.01
Z4.
G00X200.
Z150.T0M09
M01
 
N5M25
G00X200.Z150.
G50S2000
T0505M16
G96S100M03
Z-34.8
X69.925
G01X65.925F0.15
X66.925
X61.925
X62.925
X57.925
X58.925
X53.925
X54.925
X49.925
X50.925
X48.
G04F0.5
G00X69.925
Z-31.2T0505
G01X65.925F0.15
X66.925
X61.925
X62.925
X57.925
X58.925
X53.925
X54.925
X49.925
X50.925
X48.
G04F0.5
G00X69.925
Z-35.
G01X48.
G04F0.5
G00X69.925
Z-31.T0505
G01X59.2F0.15
X48.
G04F0.5
Z-34.2F0.2
G00X69.925
G00X200.
Z150.T0M09
M01
 
N6M25
G00X200.Z150.
G50S2000
T0606M16
G97S100M03
G00X80.Z3.
G92X60.Z-25.F3.
X59.2
X58.6
X58.1
X57.6
X57.1
X56.7
X56.5
X56.3
X56.2
X56.1
G00X200.
Z150.T0M09
M01
 
N7M25
G00X200.Z1500.
G50S2000
T0707M16
G96S100M03
Z2.
X18.4
G01Z0F0.15
X53.063
X60.Z-3.469
Z-35.
X66.325
G03X71.02Z-35.812I0K-3.8
G01X113.273Z-52.41
G03X120.Z-59.33I-5.437K-6.92
G01Z-150.587
X128.674Z-154.924
G03X135.Z-162.561I-7.637K-7.637
G01Z-180.
X143.4
X147.4F0.25
G00X200.
Z1500.T0M09M05
T0100M16
M24
M30
