%
(MILL=FANUC)
(INIT=X0.Y0.Z50.)
(T=1 DIA=3. NAME=EMB)
O1000
N1
G17G90G00G80G40G49
N2
G91G28Z0
G90G00X0Y0
T1M06
S610M03
G43Z50.H1
M08
G19G00X-0.536Y32.036
G00Z3.
G01Z-30.F30
G01Y31.036F16
G01Z-23.
G03Y21.788Z-13.752J-9.248
G01Y17.284
G03Y8.036Z-23.K-9.248
G01Z-30.
G01Y7.036
G01X0.289
G01Y8.036
G01Z-22.32
G02Y17.154Z-13.202J9.118
G01Y21.919
G02Y31.036Z-22.32K-9.118
G01Z-30.
G01Y32.036
G01X1.114
G01Y31.036
G01Z-21.639
G03Y22.049Z-12.652J-8.987
G01Y17.024
G03Y8.036Z-21.639K-8.987
G01Z-30.
G01Y7.036
G01X1.939
G01Y8.036
G01Z-20.959
G02Y16.893Z-12.102J8.857
G01Y22.179
G02Y31.036Z-20.959K-8.857
G01Z-30.
G01Y32.036
G01X2.764
G01Y31.036
G01Z-20.278
G03Y22.31Z-11.552J-8.727
G01Y16.763
G03Y8.036Z-20.278K-8.727
G01Z-30.
G01Y7.036
G01X3.589
G01Y8.036
G01Z-19.598
G02Y16.633Z-11.002J8.596
G01Y22.44
G02Y31.036Z-19.598K-8.596
G01Z-30.
G01Y32.036
G01X4.406
G01Y31.036
G01Z-19.039
G03Y22.569Z-10.571J-8.467
G01Y16.504
G03Y8.036Z-19.039K-8.467
G01Z-30.
G01Y7.036
G01X5.293
G01Y8.036
G01Z-18.644
G02Y16.364Z-10.316J8.327
G01Y22.709
G02Y31.036Z-18.644K-8.327
G01Z-30.
G01Y32.036
G01X6.213
G01Y31.036
G01Z-18.43
G03Y22.855Z-10.248J-8.182
G01Y16.218
G03Y8.036Z-18.43K-8.182
G01Z-30.
G01Y7.036
G01X7.128
G01Y8.036
G01Z-18.406
G02Y16.074Z-10.368J8.037
G01Y22.999
G02Y31.036Z-18.406K-8.037
G01Z-30.
G01Y32.036
G01X7.999
G01Y31.036
G01Z-18.573
G03Y23.137Z-10.673J-7.9
G01Y15.936
G03Y8.036Z-18.573K-7.9
G01Z-30.
G01Y7.036
G01X8.888
G01Y8.036
G01Z-18.811
G02Y15.796Z-11.052J7.759
G01Y23.277
G02Y31.036Z-18.811K-7.759
G01Z-30.
G01Y32.036
G01X9.802
G01Y31.036
G01Z-18.981
G03Y23.422Z-11.366J-7.615
G01Y15.651
G03Y8.036Z-18.981K-7.615
G01Z-30.
G01Y7.036
G01X10.735
G01Y8.036
G01Z-19.081
G02Y15.504Z-11.613J7.467
G01Y23.569
G02Y31.036Z-19.081K-7.467
G01Z-30.
G01Y32.036
G01X11.685
G01Y31.036
G01Z-19.11
G03Y23.719Z-11.793J-7.317
G01Y15.354
G03Y8.036Z-19.11K-7.317
G01Z-30.
G01Y7.036
G01X12.644
G01Y8.036
G01Z-19.068
G02Y15.202Z-11.903J7.166
G01Y23.871
G02Y31.036Z-19.068K-7.166
G01Z-30.
G01Y32.036
G01X13.61
G01Y31.036
G01Z-18.957
G03Y24.023Z-11.943J-7.013
G01Y15.05
G03Y8.036Z-18.957K-7.013
G01Z-30.
G01Y7.036
G01X14.575
G01Y8.036
G01Z-18.775
G02Y14.897Z-11.914J6.861
G01Y24.176
G02Y31.036Z-18.775K-6.861
G01Z-30.
G01Y32.036
G01X15.536
G01Y31.036
G01Z-18.524
G03Y24.328Z-11.816J-6.709
G01Y14.745
G03Y8.036Z-18.524K-6.709
G01Z-30.
G01Y7.036
G01X16.487
G01Y8.036
G01Z-18.206
G02Y14.595Z-11.648J6.558
G01Y24.478
G02Y31.036Z-18.206K-6.558
G01Z-30.
G01Y32.036
G01X17.424
G01Y31.036
G01Z-17.822
G03Y24.626Z-11.412J-6.41
G01Y14.447
G03Y8.036Z-17.822K-6.41
G01Z-30.
G01Y7.036
G01X18.341
G01Y8.036
G01Z-17.375
G02Y14.302Z-11.109J6.265
G01Y24.771
G02Y31.036Z-17.375K-6.265
G01Z-30.
G01Y32.036
G01X19.234
G01Y31.036
G01Z-16.865
G03Y24.912Z-10.741J-6.124
G01Y14.161
G03Y8.036Z-16.865K-6.124
G01Z-30.
G01Y7.036
G01X20.099
G01Y8.036
G01Z-16.297
G02Y14.024Z-10.309J5.988
G01Y25.049
G02Y31.036Z-16.297K-5.988
G01Z-30.
G01Y32.036
G01X20.929
G01Y31.036
G01Z-15.673
G03Y25.18Z-9.816J-5.857
G01Y13.893
G03Y8.036Z-15.673K-5.857
G01Z-30.
G01Y7.036
G01X21.722
G01Y8.036
G01Z-14.996
G02Y13.768Z-9.264J5.731
G01Y25.305
G02Y31.036Z-14.996K-5.731
G01Z-30.
G01Y32.036
G01X22.473
G01Y31.036
G01Z-14.27
G03Y25.424Z-8.657J-5.613
G01Y13.649
G03Y8.036Z-14.27K-5.613
G01Z-30.
G01Y7.036
G01X23.179
G01Y8.036
G01Z-13.498
G02Y13.538Z-7.997J5.501
G01Y25.535
G02Y31.036Z-13.498K-5.501
G01Z-30.
G01Y32.036
G01X23.835
G01Y31.036
G01Z-12.685
G03Y25.639Z-7.288J-5.398
G01Y13.434
G03Y8.036Z-12.685K-5.398
G01Z-30.
G01Y7.036
G01X24.438
G01Y8.036
G01Z-11.835
G02Y13.339Z-6.533J5.302
G01Y25.734
G02Y31.036Z-11.835K-5.302
G01Z-30.
G01Y32.036
G01X25.085
G01Y31.036
G01Z-10.972
G03Y25.836Z-5.772J-5.2
G01Y13.236
G03Y8.036Z-10.972K-5.2
G01Z-30.
G01Y7.036
G01X25.827
G01Y8.036
G01Z-10.187
G02Y13.119Z-5.104J5.083
G01Y25.954
G02Y31.036Z-10.187K-5.083
G01Z-30.
G01Y32.036
G01X26.651
G01Y31.036
G01Z-9.493
G03Y26.084Z-4.54J-4.953
G01Y12.989
G03Y8.036Z-9.493K-4.953
G01Z-30.
G01Y7.036
G01X27.543
G01Y8.036
G01Z-8.903
G02Y12.848Z-4.091J4.812
G01Y26.225
G02Y31.036Z-8.903K-4.812
G01Z-30.
G01Y32.036
G01X28.487
G01Y31.036
G01Z-8.427
G03Y26.374Z-3.765J-4.662
G01Y12.699
G03Y8.036Z-8.427K-4.662
G01Z-30.
G01Y7.036
G01X29.466
G01Y8.036
G01Z-8.074
G02Y12.544Z-3.566J4.508
G01Y26.529
G02Y31.036Z-8.074K-4.508
G01Z-30.
G01Y32.036
G01X30.462
G01Y31.036
G01Z-7.85
G03Y26.686Z-3.5J-4.35
G01Y12.387
G03Y8.036Z-7.85K-4.35
G01Z-30.
G01Y7.036
G01X31.427
G01Y8.036
G01Z-7.698
G02Y12.234Z-3.5J4.198
G01Y26.838
G02Y31.036Z-7.698K-4.198
G01Z-30.
G01Y32.036
G01X32.392
G01Y31.036
G01Z-7.545
G03Y26.991Z-3.5J-4.045
G01Y12.082
G03Y8.036Z-7.545K-4.045
G01Z-30.
G01Y7.036
G01X33.357
G01Y8.036
G01Z-7.393
G02Y11.929Z-3.5J3.893
G01Y27.143
G02Y31.036Z-7.393K-3.893
G01Z-30.
G01Y32.036
G01X34.322
G01Y31.036
G01Z-7.241
G03Y27.296Z-3.5J-3.741
G01Y11.777
G03Y8.036Z-7.241K-3.741
G01Z-30.
G01Y7.036
G01X35.287
G01Y8.036
G01Z-7.088
G02Y11.624Z-3.5J3.588
G01Y27.448
G02Y31.036Z-7.088K-3.588
G01Z-30.
G01Y32.036
G01X36.252
G01Y31.036
G01Z-6.936
G03Y27.601Z-3.5J-3.436
G01Y11.472
G03Y8.036Z-6.936K-3.436
G01Z-30.
G01Y7.036
G01X37.217
G01Y8.036
G01Z-6.783
G02Y11.32Z-3.5J3.283
G01Y27.753
G02Y31.036Z-6.783K-3.283
G01Z-30.
G01Y32.036
G01X38.182
G01Y31.036
G01Z-6.631
G03Y27.906Z-3.5J-3.131
G01Y11.167
G03Y8.036Z-6.631K-3.131
G01Z-30.
G01Y7.036
G01X39.147
G01Y8.036
G01Z-6.478
G02Y11.015Z-3.5J2.978
G01Y28.058
G02Y31.036Z-6.478K-2.978
G01Z-30.
G01Y32.036
G01X40.112
G01Y31.036
G01Z-6.326
G03Y28.211Z-3.5J-2.826
G01Y10.862
G03Y8.036Z-6.326K-2.826
G01Z-30.
G01Y7.036
G01X41.077
G01Y8.036
G01Z-6.173
G02Y10.71Z-3.5J2.673
G01Y28.363
G02Y31.036Z-6.173K-2.673
G01Z-30.
G01Y32.036
G01X42.042
G01Y31.036
G01Z-6.021
G03Y28.516Z-3.5J-2.521
G01Y10.557
G03Y8.036Z-6.021K-2.521
G01Z-30.
G01Y7.036
G01X43.007
G01Y8.036
G01Z-5.868
G02Y10.405Z-3.5J2.368
G01Y28.668
G02Y31.036Z-5.868K-2.368
G01Z-30.
G01Y32.036
G01X43.972
G01Y31.036
G01Z-5.716
G03Y28.82Z-3.5J-2.216
G01Y10.252
G03Y8.036Z-5.716K-2.216
G01Z-30.
G01Y7.036
G01X44.936
G01Y8.036
G01Z-5.563
G02Y10.1Z-3.5J2.063
G01Y28.973
G02Y31.036Z-5.563K-2.063
G01Z-30.
G01Y32.036
G01X45.901
G01Y31.036
G01Z-5.411
G03Y29.125Z-3.5J-1.911
G01Y9.947
G03Y8.036Z-5.411K-1.911
G01Z-30.
G01Y7.036
G01X46.866
G01Y8.036
G01Z-5.259
G02Y9.795Z-3.5J1.759
G01Y29.278
G02Y31.036Z-5.259K-1.759
G01Z-30.
G01Y32.036
G01X47.831
G01Y31.036
G01Z-5.106
G03Y29.43Z-3.5J-1.606
G01Y9.642
G03Y8.036Z-5.106K-1.606
G01Z-30.
G01Y7.036
G01X48.796
G01Y8.036
G01Z-4.954
G02Y9.49Z-3.5J1.454
G01Y29.583
G02Y31.036Z-4.954K-1.454
G01Z-30.
G01Y32.036
G00Z50.
G17
G49G91G28Z0M09
M05
M30
%
